!!!COM: Haydn, Franz Joseph
!!!OPR: Symphony in C Major
!!!OTL:
!!!OMV: 4
!!!SCT: H I:82
!!!SCA: Thematisch-bibliographisches Werkevererzeichnis (A. van Hoboken)
!!!YOR: Offenbach Edition, ca. 1864
!!!EED: Frances Bennion
!!!ENC: Frances Bennion
!!!CDT: 1732/3/31/-1809/5/31/
!!!OCY: Österreich
!!!YEC: Copyright (c) 1994, 2000 Center for Computer Assisted Research in the Humanities
!!!YEM: Rights to all derivative editions reserved.
!!!YEM: Refer to licensing agreement for further details.
!!!YEN: United States of America
**kern	**kern	**kern	**kern	**kern	**kern	**kern	**kern	**kern	**kern	**kern	**kern	**kern	**kern
*k[]	*k[]	*k[]	*k[]	*k[]	*k[]	*k[]	*k[]	*k[]	*k[]	*k[]	*k[]	*k[]	*k[]
*C:	*C:	*C:	*C:	*C:	*C:	*C:	*C:	*C:	*C:	*C:	*C:	*C:	*C:
*clefF4	*clefF4	*clefF	*clefF	*clefC3	*clefF4	*clefF	*clefF	*clefF	*clefF	*clefF	*clefF	*clefF	*clefF4
*M2/4	*M2/4	*M2/4	*M2/4	*M2/4	*M2/4	*M2/4	*M2/4	*M2/4	*M2/4	*M2/4	*M2/4	*M2/4	*M2/4
*tb16	*tb16	*tb16	*tb16	*tb16	*tb16	*tb16	*tb16	*tb16	*tb16	*tb16	*tb16	*tb16	*tb16
=1	=1	=1	=1	=1	=1	=1	=1	=1	=1	=1	=1	=1	=1
2r	2r	2r	2r	2r	[2C	2r	2r	2r	2r	2r	2r	2r	2r
=2	=2	=2	=2	=2	=2	=2	=2	=2	=2	=2	=2	=2	=2
2r	2r	4.r	2r	2r	2C_	2r	2r	2r	2r	2r	2r	2r	2r
.	.	8e	.	.	.	.	.	.	.	.	.	.	.
=3	=3	=3	=3	=3	=3	=3	=3	=3	=3	=3	=3	=3	=3
2r	2r	8f	2r	2r	2C_	2r	2r	2r	2r	2r	2r	2r	2r
.	.	16e	.	.	.	.	.	.	.	.	.	.	.
.	.	16f	.	.	.	.	.	.	.	.	.	.	.
.	.	8d	.	.	.	.	.	.	.	.	.	.	.
.	.	8b	.	.	.	.	.	.	.	.	.	.	.
=4	=4	=4	=4	=4	=4	=4	=4	=4	=4	=4	=4	=4	=4
2r	2r	8cc	2r	2r	2C_	2r	2r	2r	2r	2r	2r	2r	2r
.	.	8ee	.	.	.	.	.	.	.	.	.	.	.
.	.	8cc	.	.	.	.	.	.	.	.	.	.	.
.	.	8e	.	.	.	.	.	.	.	.	.	.	.
=5	=5	=5	=5	=5	=5	=5	=5	=5	=5	=5	=5	=5	=5
2r	2r	8f	2r	2r	2C_	2r	2r	2r	2r	2r	2r	2r	2r
.	.	16e	.	.	.	.	.	.	.	.	.	.	.
.	.	16f	.	.	.	.	.	.	.	.	.	.	.
.	.	8d	.	.	.	.	.	.	.	.	.	.	.
.	.	8b	.	.	.	.	.	.	.	.	.	.	.
=6	=6	=6	=6	=6	=6	=6	=6	=6	=6	=6	=6	=6	=6
2r	2r	8cc	2r	2r	2C_	2r	2r	2r	2r	2r	2r	2r	2r
.	.	8ee	.	.	.	.	.	.	.	.	.	.	.
.	.	8cc	.	.	.	.	.	.	.	.	.	.	.
.	.	8e	.	.	.	.	.	.	.	.	.	.	.
=7	=7	=7	=7	=7	=7	=7	=7	=7	=7	=7	=7	=7	=7
2r	2r	8f	2r	2r	2C_	2r	2r	2r	2r	2r	2r	2r	2r
.	.	16e	.	.	.	.	.	.	.	.	.	.	.
.	.	16f	.	.	.	.	.	.	.	.	.	.	.
.	.	8d	.	.	.	.	.	.	.	.	.	.	.
.	.	8b	.	.	.	.	.	.	.	.	.	.	.
=8	=8	=8	=8	=8	=8	=8	=8	=8	=8	=8	=8	=8	=8
2r	2r	8cc	2r	2r	4C]	2r	2r	2r	2r	2r	2r	2r	2r
.	.	8ee	.	.	.	.	.	.	.	.	.	.	.
.	.	8cc	.	.	8r	.	.	.	.	.	.	.	.
.	.	8g	.	.	8E	.	.	.	.	.	.	.	.
=9	=9	=9	=9	=9	=9	=9	=9	=9	=9	=9	=9	=9	=9
2r	2r	8a	[2c	4r	4F	2r	2r	2r	2r	2r	2r	2r	2r
.	.	8cc	.	.	.	.	.	.	.	.	.	.	.
.	.	8g	.	4G	4E	.	.	.	.	.	.	.	.
.	.	8cc	.	.	.	.	.	.	.	.	.	.	.
=10	=10	=10	=10	=10	=10	=10	=10	=10	=10	=10	=10	=10	=10
2r	2r	2g	2c]	2A	8D	2r	2r	2r	2r	2r	2r	2r	2r
.	.	.	.	.	8D	.	.	.	.	.	.	.	.
.	.	.	.	.	8D	.	.	.	.	.	.	.	.
.	.	.	.	.	8D	.	.	.	.	.	.	.	.
=11	=11	=11	=11	=11	=11	=11	=11	=11	=11	=11	=11	=11	=11
2r	2r	4.f	2B	2d	8GG	2r	2r	2r	2r	2r	2r	2r	2r
.	.	.	.	.	8GG	.	.	.	.	.	.	.	.
.	.	.	.	.	8GG	.	.	.	.	.	.	.	.
.	.	16e	.	.	8GG	.	.	.	.	.	.	.	.
.	.	16f	.	.	.	.	.	.	.	.	.	.	.
=12	=12	=12	=12	=12	=12	=12	=12	=12	=12	=12	=12	=12	=12
4C	8C	4e	4c	4G	4C	2r	2r	2r	2r	2r	4.r	4.r	8C
.	16E	.	.	.	.	.	.	.	.	.	.	.	16E
.	16G	.	.	.	.	.	.	.	.	.	.	.	16G
4r	4c	4r	4r	4r	4r	.	.	.	.	.	.	.	4c
.	.	.	.	.	.	.	.	.	.	.	8gg	8ee	.
=13	=13	=13	=13	=13	=13	=13	=13	=13	=13	=13	=13	=13	=13
4C	2r	2r	2r	2r	2r	2r	2r	2r	2r	2r	8ccc	8aa	2r
.	.	.	.	.	.	.	.	.	.	.	8bb	8gg	.
4r	.	.	.	.	.	.	.	.	.	.	8aa	8ff	.
.	.	.	.	.	.	.	.	.	.	.	8gg	8ee	.
=14	=14	=14	=14	=14	=14	=14	=14	=14	=14	=14	=14	=14	=14
4C	8r	2r	2r	2r	2r	2r	2r	2r	2r	2r	4.gg	4.ee	8r
.	8C	.	.	.	.	.	.	.	.	.	.	.	8C
4r	8E	.	.	.	.	.	.	.	.	.	.	.	8E
.	8C	.	.	.	.	.	.	.	.	.	8ee	8cc	8C
=15	=15	=15	=15	=15	=15	=15	=15	=15	=15	=15	=15	=15	=15
4GG	4G	2r	2r	2r	2r	2r	2r	2r	2r	2r	8ff	8dd	4G
.	.	.	.	.	.	.	.	.	.	.	8ee	8cc	.
4r	4GG	.	.	.	.	.	.	.	.	.	8ff	8dd	4GG
.	.	.	.	.	.	.	.	.	.	.	8dd	8b	.
=16	=16	=16	=16	=16	=16	=16	=16	=16	=16	=16	=16	=16	=16
4C	8C	2r	2r	2r	2r	4.r	4.r	4.r	4.r	2r	4.cc	4.cc	8C
.	16E	.	.	.	.	.	.	.	.	.	.	.	16E
.	16G	.	.	.	.	.	.	.	.	.	.	.	16G
8r	8c	.	.	.	.	.	.	.	.	.	.	.	8c
8GG	8G	.	.	.	.	8dd	8g	8dd	8g	.	8dd	8g	8G
=17	=17	=17	=17	=17	=17	=17	=17	=17	=17	=17	=17	=17	=17
4C	4c	2r	2r	2r	2r	4ee	4cc	4ee	4cc	2r	8ee	8cc	4c
.	.	.	.	.	.	.	.	.	.	.	8ff	8dd	.
8r	8r	.	.	.	.	8r	8r	8r	8r	.	8gg	8ee	8r
8GG	8G	.	.	.	.	8dd	8g	8dd	8g	.	8dd	8b	8G
=18	=18	=18	=18	=18	=18	=18	=18	=18	=18	=18	=18	=18	=18
4C	4c	2r	2r	2r	2r	4ee	4cc	4ee	4cc	2r	8ee	8cc	4c
.	.	.	.	.	.	.	.	.	.	.	8ff	8dd	.
8r	8r	.	.	.	.	8r	8r	8r	8r	.	8gg	8ee	8r
8GG	8G	.	.	.	.	8dd	8g	8dd	8g	.	8dd	8b	8G
=19	=19	=19	=19	=19	=19	=19	=19	=19	=19	=19	=19	=19	=19
4C	4c	2r	2r	2r	2r	4ee	4cc	4ee	4cc	2r	8ee	8cc	4c
.	.	.	.	.	.	.	.	.	.	.	8dd	8b	.
4C	4C	.	.	.	.	4ee	4cc	4ee	4cc	.	8ee	8cc	4C
.	.	.	.	.	.	.	.	.	.	.	8ff	8dd	.
=20	=20	=20	=20	=20	=20	=20	=20	=20	=20	=20	=20	=20	=20
4GG	4G	2gg	2r	2r	2r	4dd	4g	4dd	4g	2r	4dd	4g	4G
4r	4r	.	.	.	.	4r	4r	4r	4r	.	4r	4r	4r
=21	=21	=21	=21	=21	=21	=21	=21	=21	=21	=21	=21	=21	=21
2r	2r	2gg	2r	2r	2r	2r	2r	2r	2r	2r	2r	2r	2r
=22	=22	=22	=22	=22	=22	=22	=22	=22	=22	=22	=22	=22	=22
2r	[2G	2gg	2r	[2G	2C	2r	2r	2r	2r	2r	2r	2r	[2G
=23	=23	=23	=23	=23	=23	=23	=23	=23	=23	=23	=23	=23	=23
2r	2G_	[2gg	4.r	2G_	2C	2r	2r	2r	2r	4.r	2r	2r	2G_
.	.	.	8e	.	.	.	.	.	.	8ee	.	.	.
=24	=24	=24	=24	=24	=24	=24	=24	=24	=24	=24	=24	=24	=24
2r	2G_	2gg_	8f	2G_	2C	2r	2r	2r	2r	8ff	2r	2r	2G_
.	.	.	16e	.	.	.	.	.	.	16ee	.	.	.
.	.	.	16f	.	.	.	.	.	.	16ff	.	.	.
.	.	.	8d	.	.	.	.	.	.	8dd	.	.	.
.	.	.	8b	.	.	.	.	.	.	8bb	.	.	.
=25	=25	=25	=25	=25	=25	=25	=25	=25	=25	=25	=25	=25	=25
2r	2G_	2gg_	8cc	2G_	2C	2r	2r	2r	2r	8ccc	2r	2r	2G_
.	.	.	8ee	.	.	.	.	.	.	8eee	.	.	.
.	.	.	8cc	.	.	.	.	.	.	8ccc	.	.	.
.	.	.	8e	.	.	.	.	.	.	8ee	.	.	.
=26	=26	=26	=26	=26	=26	=26	=26	=26	=26	=26	=26	=26	=26
2r	2G_	2gg_	8f	2G_	2C	2r	2r	2r	2r	8ff	2r	2r	2G_
.	.	.	16e	.	.	.	.	.	.	16ee	.	.	.
.	.	.	16f	.	.	.	.	.	.	16ff	.	.	.
.	.	.	8d	.	.	.	.	.	.	8dd	.	.	.
.	.	.	8b	.	.	.	.	.	.	8bb	.	.	.
=27	=27	=27	=27	=27	=27	=27	=27	=27	=27	=27	=27	=27	=27
2r	2G_	2gg_	8cc	2G_	2C	2r	2r	2r	2r	8ccc	2r	2r	2G_
.	.	.	8ee	.	.	.	.	.	.	8eee	.	.	.
.	.	.	8cc	.	.	.	.	.	.	8ccc	.	.	.
.	.	.	8e	.	.	.	.	.	.	8ee	.	.	.
=28	=28	=28	=28	=28	=28	=28	=28	=28	=28	=28	=28	=28	=28
2r	2G_	2gg_	8f	2G_	2C	2r	2r	2r	2r	8ff	2r	2r	2G_
.	.	.	16e	.	.	.	.	.	.	16ee	.	.	.
.	.	.	16f	.	.	.	.	.	.	16ff	.	.	.
.	.	.	8d	.	.	.	.	.	.	8dd	.	.	.
.	.	.	8b	.	.	.	.	.	.	8bb	.	.	.
=29	=29	=29	=29	=29	=29	=29	=29	=29	=29	=29	=29	=29	=29
2r	2G_	2gg]	8cc	2G]	2C	2r	2r	2r	2r	8ccc	2r	2r	2G_
.	.	.	8ee	.	.	.	.	.	.	8eee	.	.	.
.	.	.	8cc	.	.	.	.	.	.	8ccc	.	.	.
.	.	.	8b	.	.	.	.	.	.	8bb	.	.	.
=30	=30	=30	=30	=30	=30	=30	=30	=30	=30	=30	=30	=30	=30
2r	2G]	2aa	8a	2e	2C	2r	2r	2r	2r	8aa	2r	2r	2G]
.	.	.	8ee	.	.	.	.	.	.	8eee	.	.	.
.	.	.	8cc	.	.	.	.	.	.	8ccc	.	.	.
.	.	.	8a	.	.	.	.	.	.	8aa	.	.	.
=31	=31	=31	=31	=31	=31	=31	=31	=31	=31	=31	=31	=31	=31
2r	2c	2ff#	2cc 2a	2A	2D	2r	2r	2r	2r	2ff#	2r	2r	2c
=32	=32	=32	=32	=32	=32	=32	=32	=32	=32	=32	=32	=32	=32
2r	2B	2gg	2b 2d	2B	2GG	2r	2r	2r	2r	2gg	2r	2r	2B
=33	=33	=33	=33	=33	=33	=33	=33	=33	=33	=33	=33	=33	=33
2r	2r	2ddd	2r	2dd	2r	2r	2r	2r	2r	2r	2ddd	2dd	2r
=34	=34	=34	=34	=34	=34	=34	=34	=34	=34	=34	=34	=34	=34
2r	4.r	2ddd	4.r	2dd	2r	2r	2r	2r	2r	4.r	2ddd	2dd	4.r
.	8B	.	8B	.	.	.	.	.	.	8b	.	.	8B
=35	=35	=35	=35	=35	=35	=35	=35	=35	=35	=35	=35	=35	=35
2r	8c	2ddd	8c	2dd	2r	2r	2r	2r	2r	8cc	2ddd	2dd	8c
.	16B	.	16B	.	.	.	.	.	.	16b	.	.	16B
.	16c	.	16c	.	.	.	.	.	.	16cc	.	.	16c
.	8A	.	8A	.	.	.	.	.	.	8a	.	.	8A
.	8F#	.	8f#	.	.	.	.	.	.	8ff#	.	.	8F#
=36	=36	=36	=36	=36	=36	=36	=36	=36	=36	=36	=36	=36	=36
4GG	8G	2ddd	8g	4.dd	4.r	4dd	4g	4dd	4g	8gg	2ddd	2dd	8G
.	8B	.	8b	.	.	.	.	.	.	8bb	.	.	8B
4r	8G	.	8g	.	.	4r	4r	4r	4r	8gg	.	.	8G
.	8BB	.	8r	8B	8BB	.	.	.	.	8b	.	.	8BB
=37	=37	=37	=37	=37	=37	=37	=37	=37	=37	=37	=37	=37	=37
2r	8C	2ddd	2dd	8c	8C	2r	2r	2r	2r	8cc	2ddd	2dd	8C
.	16BB	.	.	16B	16BB	.	.	.	.	16b	.	.	16BB
.	16C	.	.	16c	16C	.	.	.	.	16cc	.	.	16C
.	8AA	.	.	8A	8AA	.	.	.	.	8a	.	.	8AA
.	8F#	.	.	8f#	8F#	.	.	.	.	8ff#	.	.	8F#
=38	=38	=38	=38	=38	=38	=38	=38	=38	=38	=38	=38	=38	=38
4GG	8G	2ddd	2dd	8g	8G	4dd	4g	4dd	4g	8gg	2ddd	2dd	8G
.	8B	.	.	8b	8B	.	.	.	.	8bb	.	.	8B
4r	8G	.	.	8g	8G	4r	4r	4r	4r	8gg	.	.	8G
.	8B	.	.	8b	8B	.	.	.	.	8b	.	.	8B
=39	=39	=39	=39	=39	=39	=39	=39	=39	=39	=39	=39	=39	=39
2r	8c	4.ddd	4.dd	8cc	8c	2r	2r	2r	2r	8cc	4.ddd	[2dd	8c
.	16B	.	.	16b	16B	.	.	.	.	16b	.	.	16B
.	16c	.	.	16cc	16c	.	.	.	.	16cc	.	.	16c
.	8A	.	.	8a	8A	.	.	.	.	8a	.	.	8A
.	8F#	8ccc	8ccc	8f#	8f#	.	.	.	.	8ff#	8ccc	.	8F#
=40	=40	=40	=40	=40	=40	=40	=40	=40	=40	=40	=40	=40	=40
4GG	8G	16bb	16bb	8g	4g	4dd	4g	4dd	4g	8gg	4bb	4dd]	8G
.	.	16bb	16bb	.	.	.	.	.	.	.	.	.	.
.	8B	16ddd	16ddd	8b	.	.	.	.	.	8ddd	.	.	8B
.	.	16ddd	16ddd	.	.	.	.	.	.	.	.	.	.
4r	8G	16bb	16bb	8g	8r	4r	4r	4r	4r	8bb	8r	8r	8G
.	.	16bb	16bb	.	.	.	.	.	.	.	.	.	.
.	8d	16aa	16aa	8f#	8d	.	.	.	.	8aa	8aa	8ff#	8d
.	.	16aa	16aa	.	.	.	.	.	.	.	.	.	.
=41	=41	=41	=41	=41	=41	=41	=41	=41	=41	=41	=41	=41	=41
2r	4e	16gg	16gg	4g	4e	2r	2r	2r	2r	8gg	4gg	4gg	4e
.	.	16gg	16gg	.	.	.	.	.	.	.	.	.	.
.	.	16bb	16bb	.	.	.	.	.	.	8bb	.	.	.
.	.	16bb	16bb	.	.	.	.	.	.	.	.	.	.
.	8r	16gg	16gg	8r	8r	.	.	.	.	8gg	8r	8r	8r
.	.	16gg	16gg	.	.	.	.	.	.	.	.	.	.
.	8B	16ff#	16ff#	8d	8B	.	.	.	.	8ff#	8ff#	8dd	8B
.	.	16ff#	16ff#	.	.	.	.	.	.	.	.	.	.
=42	=42	=42	=42	=42	=42	=42	=42	=42	=42	=42	=42	=42	=42
2r	8c	16ee	16ee	4e	8c	2r	2r	2r	2r	8ee	4ee	4ee	8c
.	.	16ee	16ee	.	.	.	.	.	.	.	.	.	.
.	8e	16gg	16gg	.	8e	.	.	.	.	8gg	.	.	8e
.	.	16gg	16gg	.	.	.	.	.	.	.	.	.	.
.	8c	16ee	16ee	8r	8c	.	.	.	.	8ee	8r	8r	8c
.	.	16ee	16ee	.	.	.	.	.	.	.	.	.	.
.	8B	16dd	16dd	8g#	8B	.	.	.	.	8dd	8dd	8g#	8B
.	.	16dd	16dd	.	.	.	.	.	.	.	.	.	.
=43	=43	=43	=43	=43	=43	=43	=43	=43	=43	=43	=43	=43	=43
2r	8A	16cc	16cc	4a	8A	2r	2r	2r	2r	8cc	4cc	4a	8A
.	.	16cc	16cc	.	.	.	.	.	.	.	.	.	.
.	8c	16ee	16ee	.	8c	.	.	.	.	8ee	.	.	8c
.	.	16ee	16ee	.	.	.	.	.	.	.	.	.	.
.	8A	16cc	16cc	8r	8A	.	.	.	.	8cc	8r	8r	8A
.	.	16cc	16cc	.	.	.	.	.	.	.	.	.	.
.	8B	16b	16b	8d	8B	.	.	.	.	8b	8b	8dd	8B
.	.	16b	16b	.	.	.	.	.	.	.	.	.	.
=44	=44	=44	=44	=44	=44	=44	=44	=44	=44	=44	=44	=44	=44
2r	8c	16a	16a	4e	8c	2r	2r	2r	2r	8a	4a	4ee	8c
.	.	16a	16a	.	.	.	.	.	.	.	.	.	.
.	8A	16cc	16cc	.	8A	.	.	.	.	8ccc	.	.	8A
.	.	16cc	16cc	.	.	.	.	.	.	.	.	.	.
.	8c	16a	16a	8r	8c	.	.	.	.	8aa	8r	8r	8c
.	.	16a	16a	.	.	.	.	.	.	.	.	.	.
.	8c#	16g	16g	8e	8c#	.	.	.	.	8gg	8g	8ee	8c#
.	.	16g	16g	.	.	.	.	.	.	.	.	.	.
=45	=45	=45	=45	=45	=45	=45	=45	=45	=45	=45	=45	=45	=45
2r	8d	16f#	16f#	4d	8d	[2dd	[2dd	[2dd	[2dd	2ff#	2dd	2dd	8d
.	.	16f#	16f#	.	.	.	.	.	.	.	.	.	.
.	8D	16a	16a	.	8D	.	.	.	.	.	.	.	8D
.	.	16a	16a	.	.	.	.	.	.	.	.	.	.
.	8d	8d	8d	4f#	8d	.	.	.	.	.	.	.	8d
.	8D	8dd	8dd	.	8D	.	.	.	.	.	.	.	8D
=46	=46	=46	=46	=46	=46	=46	=46	=46	=46	=46	=46	=46	=46
2r	8d	8ee	4cc#	4g	8d	2dd_	2dd_	2dd_	2dd_	4gg	4ee	4cc#	8d
.	8D	16dd	.	.	8D	.	.	.	.	.	.	.	8D
.	.	16ee	.	.	.	.	.	.	.	.	.	.	.
.	8d	8ff#	4cc	4a	8d	.	.	.	.	4aa	4ff#	4cc	8d
.	8D	16ee	.	.	8D	.	.	.	.	.	.	.	8D
.	.	16ff#	.	.	.	.	.	.	.	.	.	.	.
=47	=47	=47	=47	=47	=47	=47	=47	=47	=47	=47	=47	=47	=47
2r	8d	8gg	4.b 4.d	2b	8d	2dd_	2dd_	2dd_	2dd_	2bb	2gg	4.b	8d
.	8D	8bb	.	.	8D	.	.	.	.	.	.	.	8D
.	8d	8gg	.	.	8d	.	.	.	.	.	.	.	8d
.	8D	8dd	8dd	.	8D	.	.	.	.	.	.	8gg	8D
=48	=48	=48	=48	=48	=48	=48	=48	=48	=48	=48	=48	=48	=48
2r	8d	8aa	8ff#	4cc	8d	2dd_	2dd_	2dd_	2dd_	4ccc	4aa	4ff#	8d
.	8D	16gg	16ee	.	8D	.	.	.	.	.	.	.	8D
.	.	16aa	16ff#	.	.	.	.	.	.	.	.	.	.
.	8d	8bb	8gg	4b	8d	.	.	.	.	4bb	4bb	4gg	8d
.	8D	16aa	16ff#	.	8D	.	.	.	.	.	.	.	8D
.	.	16bb	16gg	.	.	.	.	.	.	.	.	.	.
=49	=49	=49	=49	=49	=49	=49	=49	=49	=49	=49	=49	=49	=49
2r	8d	8ccc	8aa	4a	8d	2dd_	2dd_	2dd_	2dd_	4aa	2ccc	2aa	8d
.	8D	8aa	8ff#	.	8D	.	.	.	.	.	.	.	8D
.	8d	8dd	8dd	4r	8d	.	.	.	.	8ff#	.	.	8d
.	8D	8dd	8dd	.	8D	.	.	.	.	8dd	.	.	8D
=50	=50	=50	=50	=50	=50	=50	=50	=50	=50	=50	=50	=50	=50
2r	8G	8bb	8bb	8g	8G	2dd_	2dd_	2dd_	2dd_	8bb	4bb	2dd	8G
.	8GG	16aa	16aa	8G	8GG	.	.	.	.	16aa	.	.	8GG
.	.	16bb	16bb	.	.	.	.	.	.	16bb	.	.	.
.	8A	8ccc	8ccc	8a	8A	.	.	.	.	8ccc	4ccc	.	8A
.	8AA	16bb	16bb	8A	8AA	.	.	.	.	16bb	.	.	8AA
.	.	16ccc	16ccc	.	.	.	.	.	.	16ccc	.	.	.
=51	=51	=51	=51	=51	=51	=51	=51	=51	=51	=51	=51	=51	=51
2r	4B	8ddd	8ddd	4b	4B	4dd]	4dd]	4dd]	4dd]	8ddd	4.ddd	4.dd	4B
.	.	8bb	8bb	.	.	.	.	.	.	8bb	.	.	.
.	8r	8gg	8gg	8r	8r	4r	4r	4r	4r	8gg	.	.	8r
.	8G	8bb	[8gg	8g	8G	.	.	.	.	8bb	8bb	8gg	8G
=52	=52	=52	=52	=52	=52	=52	=52	=52	=52	=52	=52	=52	=52
4GG	8c	8aa	8gg]	8cc	8c	2r	2r	2r	2r	8aa	[2aa	[2gg	8c
.	16B	4aa	4gg	16b	16B	.	.	.	.	4aa	.	.	16B
.	16c	.	.	16cc	16c	.	.	.	.	.	.	.	16c
4GG	8d	.	.	8dd	8d	.	.	.	.	.	.	.	8d
.	16c	[8aa	[8gg	16cc	16c	.	.	.	.	[8aa	.	.	16c
.	16d	.	.	16dd	16d	.	.	.	.	.	.	.	16d
=53	=53	=53	=53	=53	=53	=53	=53	=53	=53	=53	=53	=53	=53
4GG	4e	8aa]	8gg]	4ee	4e	2r	2r	2r	2r	8aa]	4aa]	4gg]	4e
.	.	16eee	4r	.	.	.	.	.	.	16eee	.	.	.
.	.	16ccc	.	.	.	.	.	.	.	16ccc	.	.	.
4r	8r	8aa	.	8r	8r	.	.	.	.	8aa	8r	8r	8r
.	8d	8bb	[8gg	8dd	8d	.	.	.	.	8bb	8bb	8gg	8d
=54	=54	=54	=54	=54	=54	=54	=54	=54	=54	=54	=54	=54	=54
4GG	8c	8aa	8gg]	8cc	8c	2r	2r	2r	2r	8aa	[2aa	[2gg	8c
.	16B	4aa	4gg	16b	16B	.	.	.	.	4aa	.	.	16B
.	16c	.	.	16cc	16c	.	.	.	.	.	.	.	16c
4GG	8d	.	.	8dd	8d	.	.	.	.	.	.	.	8d
.	16c	[8aa	[8gg	16cc	16c	.	.	.	.	[8aa	.	.	16c
.	16d	.	.	16dd	16d	.	.	.	.	.	.	.	16d
=55	=55	=55	=55	=55	=55	=55	=55	=55	=55	=55	=55	=55	=55
4GG	4e	8aa]	8gg]	4ee	4e	4.r	4.r	4.r	4.r	8aa]	4aa]	4gg]	4e
.	.	16eee	4r	.	.	.	.	.	.	16eee	.	.	.
.	.	16ccc	.	.	.	.	.	.	.	16ccc	.	.	.
4r	8r	8aa	.	8r	8r	.	.	.	.	8aa	8r	8r	8r
.	8d	8bb-	8gg	8dd	8d	8g	8g	8g	8g	8bb-	8bb-	8gg	8d
=56	=56	=56	=56	=56	=56	=56	=56	=56	=56	=56	=56	=56	=56
2r	8c#	16aa	16gg	8cc#	8c#	8g	8g	8g	8g	8aa	8aa	8gg	8c#
.	.	16aa	16gg	.	.	.	.	.	.	.	.	.	.
.	8d	16bb-	16gg	8dd	8d	8g	8g	8g	8g	8bb-	8bb-	8gg	8d
.	.	16bb-	16gg	.	.	.	.	.	.	.	.	.	.
.	8c#	16aa	16gg	8cc#	8c#	8g	8g	8g	8g	8aa	8aa	8gg	8c#
.	.	16aa	16gg	.	.	.	.	.	.	.	.	.	.
.	8d	16bb-	16gg	8dd	8d	8g	8g	8g	8g	8bb-	8bb-	8gg	8d
.	.	16bb-	16gg	.	.	.	.	.	.	.	.	.	.
=57	=57	=57	=57	=57	=57	=57	=57	=57	=57	=57	=57	=57	=57
4GG	4c#	8aa	4gg	4cc#	4c#	4g	4g	4g	4g	4aa	4aa	4gg	4c#
.	.	16eee	.	.	.	.	.	.	.	.	.	.	.
.	.	16ccc#	.	.	.	.	.	.	.	.	.	.	.
4r	8r	8aa	8r	8r	8r	8r	8r	8r	8r	8r	8r	8r	8r
.	8d	8bb-	8gg	8dd	8d	8g	8g	8g	8g	8bb-	8bb-	8gg	8d
=58	=58	=58	=58	=58	=58	=58	=58	=58	=58	=58	=58	=58	=58
2r	8c#	16aa	16gg	8cc#	8c#	8g	8g	8g	8g	8aa	8aa	8gg	8c#
.	.	16aa	16gg	.	.	.	.	.	.	.	.	.	.
.	8d	16bb-	16gg	8dd	8d	8g	8g	8g	8g	8bb-	8bb-	8gg	8d
.	.	16bb-	16gg	.	.	.	.	.	.	.	.	.	.
.	8c#	16aa	16gg	8cc#	8c#	8g	8g	8g	8g	8aa	8aa	8gg	8c#
.	.	16aa	16gg	.	.	.	.	.	.	.	.	.	.
.	8d	16bb-	16gg	8dd	8d	8g	8g	8g	8g	8bb-	8bb-	8gg	8d
.	.	16bb-	16gg	.	.	.	.	.	.	.	.	.	.
=59	=59	=59	=59	=59	=59	=59	=59	=59	=59	=59	=59	=59	=59
4GG	4c#	8aa	4gg	4cc#	4c#	4g	4g	4g	4g	8aa	4aa	4gg	4c#
.	.	16eee	.	.	.	.	.	.	.	16eee	.	.	.
.	.	16ccc#	.	.	.	.	.	.	.	16ccc#	.	.	.
4r	8r	8aa	8r	8r	8r	8r	8r	8r	8r	8aa	8r	8r	8r
.	8d	8bb-	8gg	8dd	8d	8g	8g	8g	8g	8bb-	8bb-	8gg	8d
=60	=60	=60	=60	=60	=60	=60	=60	=60	=60	=60	=60	=60	=60
2r	8c#	16aa	16gg	8cc#	8c#	8g	8g	8g	8g	8aa	8aa	8gg	8c#
.	.	16aa	16gg	.	.	.	.	.	.	.	.	.	.
.	8d	16bb-	16gg	8dd	8d	8g	8g	8g	8g	8bb-	8bb-	8gg	8d
.	.	16bb-	16gg	.	.	.	.	.	.	.	.	.	.
.	8c#	16aa	16gg	8cc#	8c#	8g	8g	8g	8g	8aa	8aa	8gg	8c#
.	.	16aa	16gg	.	.	.	.	.	.	.	.	.	.
.	8A	16gg	16gg	8ee	8A	8g	8g	8g	8g	8gg	8gg	8gg	8A
.	.	16gg	16gg	.	.	.	.	.	.	.	.	.	.
=61	=61	=61	=61	=61	=61	=61	=61	=61	=61	=61	=61	=61	=61
2r	4d	8ff#	4ff#	4dd	4d	4dd	4dd	4dd	4dd	4ff#	4ff#	4ff#	4d
.	.	16ccc	.	.	.	.	.	.	.	.	.	.	.
.	.	16aa	.	.	.	.	.	.	.	.	.	.	.
.	8r	8ff#	8r	8r	8r	8r	8r	8r	8r	8r	8r	8r	8r
.	16F#	8r	8ff# 8cc	8a 8d	8D	8dd	8dd	8dd	8dd	16ccc	16ccc	16f#	16F#
.	16A	.	.	.	.	.	.	.	.	16aa	16aa	16a	16A
=62	=62	=62	=62	=62	=62	=62	=62	=62	=62	=62	=62	=62	=62
2r	4c	8r	4ff# 4cc	4d 4a	4D	4dd	4dd	4dd	4dd	4ff#	4ff#	4cc	4c
.	.	16ccc	.	.	.	.	.	.	.	.	.	.	.
.	.	16aa	.	.	.	.	.	.	.	.	.	.	.
.	8r	8ff#	8r	8r	8r	8r	8r	8r	8r	8r	8r	8r	8r
.	16F#	8r	8ff# 8cc	8a 8d	8D	8dd	8dd	8dd	8dd	16ccc	16ccc	16f#	16F#
.	16A	.	.	.	.	.	.	.	.	16aa	16aa	16a	16A
=63	=63	=63	=63	=63	=63	=63	=63	=63	=63	=63	=63	=63	=63
2r	4c	8r	4ff# 4d 4cc	4d 4a	4D	4dd	4dd	4dd	4dd	4ff#	4ff#	4cc	4c
.	.	16ccc	.	.	.	.	.	.	.	.	.	.	.
.	.	16aa	.	.	.	.	.	.	.	.	.	.	.
.	8r	8ff#	8r	8r	8r	8r	8r	8r	8r	8r	8r	8r	8r
.	16F#	16ccc	8ff# 8cc	8a 8d	8D	8dd	8dd	8dd	8dd	16ccc	16ccc	16f#	16F#
.	16A	16aa	.	.	.	.	.	.	.	16aa	16aa	16a	16A
=64	=64	=64	=64	=64	=64	=64	=64	=64	=64	=64	=64	=64	=64
2r	8c	8ff#	8ff# 8cc	8a 8d	8D	8dd	8dd	8dd	8dd	8ff#	8ff#	8cc	8c
.	16F#	16ccc	8cc 8ff#	8a 8d	8D	8dd	8dd	8dd	8dd	16ccc	16ccc	16f#	16F#
.	16A	16aa	.	.	.	.	.	.	.	16aa	16aa	16a	16A
.	8c	8ff#	8ff# 8cc	8a 8d	8D	8dd	8dd	8dd	8dd	8ff#	8ff#	8cc	8c
.	16F#	16ccc	8cc 8ff#	8a 8d	8D	8dd	8dd	8dd	8dd	16ccc	16ccc	16f#	16F#
.	16A	16aa	.	.	.	.	.	.	.	16aa	16aa	16a	16A
=65	=65	=65	=65	=65	=65	=65	=65	=65	=65	=65	=65	=65	=65
2r	4c	4ff#	4ff# 4cc 4d	4a 4d	4D	4dd	4dd	4dd	4dd	4ff#	4ff#	4cc	4c
.	4r	4r	4r	4r	4r	4r	4r	4r	4r	4r	8r	8r	4r
.	.	.	.	.	.	.	.	.	.	.	8bb	8dd	.
=66	=66	=66	=66	=66	=66	=66	=66	=66	=66	=66	=66	=66	=66
2r	8r	8r	2r	2r	2r	2r	2r	2r	2r	2r	4.bb	4.dd	8r
.	8GG	8G	.	.	.	.	.	.	.	.	.	.	8GG
.	8BB	8B	.	.	.	.	.	.	.	.	.	.	8BB
.	8D	8d	.	.	.	.	.	.	.	.	8aa	8cc	8D
=67	=67	=67	=67	=67	=67	=67	=67	=67	=67	=67	=67	=67	=67
2r	4G	4g	2r	2r	2r	2r	2r	2r	2r	2r	8aa	8cc	4G
.	.	.	.	.	.	.	.	.	.	.	8gg	8b	.
.	4r	4r	.	.	.	.	.	.	.	.	8gg	8b	4r
.	.	.	.	.	.	.	.	.	.	.	8ccc	8aa	.
=68	=68	=68	=68	=68	=68	=68	=68	=68	=68	=68	=68	=68	=68
2r	8r	8r	2r	2r	2r	2r	2r	2r	2r	2r	4.ccc	4.aa	8r
.	8D	8d	.	.	.	.	.	.	.	.	.	.	8D
.	8F#	8f#	.	.	.	.	.	.	.	.	.	.	8F#
.	8G	8g	.	.	.	.	.	.	.	.	8bb	8gg	8G
=69	=69	=69	=69	=69	=69	=69	=69	=69	=69	=69	=69	=69	=69
2r	4D	4d	2r	2r	2r	2r	2r	2r	2r	2r	8bb	8gg	4D
.	.	.	.	.	.	.	.	.	.	.	8aa	8ff#	.
.	4r	4r	.	.	.	.	.	.	.	.	8aa	8ff#	4r
.	.	.	.	.	.	.	.	.	.	.	8ddd	8bb	.
=70	=70	=70	=70	=70	=70	=70	=70	=70	=70	=70	=70	=70	=70
2r	8r	8r	2r	2r	2r	2r	2r	2r	2r	2r	4.ddd	4.bb	8r
.	8BB	8B	.	.	.	.	.	.	.	.	.	.	8BB
.	8C	8c	.	.	.	.	.	.	.	.	.	.	8C
.	8D	8d	.	.	.	.	.	.	.	.	8ccc	8aa	8D
=71	=71	=71	=71	=71	=71	=71	=71	=71	=71	=71	=71	=71	=71
2r	4E	4e	2r	2r	2r	2r	2r	2r	2r	2r	8ccc	8aa	4E
.	.	.	.	.	.	.	.	.	.	.	8bb	8gg	.
.	4C	4c	.	.	.	.	.	.	.	.	8ccc	8ee	4C
.	.	.	.	.	.	.	.	.	.	.	8aa	8cc	.
=72	=72	=72	=72	=72	=72	=72	=72	=72	=72	=72	=72	=72	=72
2r	4D	4d	2r	2r	2r	2r	2r	2r	2r	2r	8aa	8cc	4D
.	.	.	.	.	.	.	.	.	.	.	8gg	8b	.
.	4D	4d	.	.	.	.	.	.	.	.	8gg	8b	4D
.	.	.	.	.	.	.	.	.	.	.	8ff#	8a	.
=73	=73	=73	=73	=73	=73	=73	=73	=73	=73	=73	=73	=73	=73
4GG	8G	16g	16g	8g	8G	4g	4G	4g	4G	8gg	8gg	8g	8G
.	.	16g	16g	.	.	.	.	.	.	.	.	.	.
.	8GG	16G	16G	8G	8GG	.	.	.	.	8g	8g	8g	8GG
.	.	16G	16G	.	.	.	.	.	.	.	.	.	.
4r	8AA-	16A-	16A-	8A-	8AA-	4r	4r	4r	4r	8a-	8a-	8a-	8AA-
.	.	16A-	16A-	.	.	.	.	.	.	.	.	.	.
.	8GG	16G	16G	8G	8GG	.	.	.	.	8g	8g	8g	8GG
.	.	16G	16G	.	.	.	.	.	.	.	.	.	.
=74	=74	=74	=74	=74	=74	=74	=74	=74	=74	=74	=74	=74	=74
4GG	8G	16g	16g	8g	8G	4g	4G	4g	4G	8gg	8r	8r	8G
.	.	16g	16g	.	.	.	.	.	.	.	.	.	.
.	8BB	16B	16B	8B	8BB	.	.	.	.	8b	8b	8b	8BB
.	.	16B	16B	.	.	.	.	.	.	.	.	.	.
4r	8C	16c	16c	8c	8C	4r	4r	4r	4r	8cc	8cc	8cc	8C
.	.	16c	16c	.	.	.	.	.	.	.	.	.	.
.	8BB	16B	16B	8B	8BB	.	.	.	.	8b	8b	8b	8BB
.	.	16B	16B	.	.	.	.	.	.	.	.	.	.
=75	=75	=75	=75	=75	=75	=75	=75	=75	=75	=75	=75	=75	=75
4GG	8G	16g	16g	8g	8G	4g	4G	4g	4G	8gg	8r	8r	8G
.	.	16g	16g	.	.	.	.	.	.	.	.	.	.
.	8D	16d	16d	8d	8D	.	.	.	.	8dd	8dd	8dd	8D
.	.	16d	16d	.	.	.	.	.	.	.	.	.	.
4r	8E-	16e-	16e-	8e-	8E-	4r	4r	4r	4r	8ee-	8ee-	8ee-	8E-
.	.	16e-	16e-	.	.	.	.	.	.	.	.	.	.
.	8D	16d	16d	8d	8D	.	.	.	.	8dd	8dd	8dd	8D
.	.	16d	16d	.	.	.	.	.	.	.	.	.	.
=76	=76	=76	=76	=76	=76	=76	=76	=76	=76	=76	=76	=76	=76
4GG	8G	16g	16g	8g	8G	4g	4G	4g	4G	8gg	8gg	8gg	8G
.	.	16g	16g	.	.	.	.	.	.	.	.	.	.
.	8F	16f	16f	8f	8F	.	.	.	.	8ff	8ff	8ff	8F
.	.	16f	16f	.	.	.	.	.	.	.	.	.	.
4r	8E	16e	16e	8e	8E	4r	4r	4r	4r	8ee	8ee	8ee	8E
.	.	16e	16e	.	.	.	.	.	.	.	.	.	.
.	8D#	16d#	16d#	8d#	8D#	.	.	.	.	8dd#	8dd#	8dd#	8D#
.	.	16d#	16d#	.	.	.	.	.	.	.	.	.	.
=77	=77	=77	=77	=77	=77	=77	=77	=77	=77	=77	=77	=77	=77
4C	8G	16g	16g	8g	8G	4cc	4c	4cc	4c	8gg	4gg	4gg	8G
.	.	16g	16g	.	.	.	.	.	.	.	.	.	.
.	8E	16e	16e	8e	8E	.	.	.	.	8ee	.	.	8E
.	.	16e	16e	.	.	.	.	.	.	.	.	.	.
4r	8G#	16g#	16g#	8g#	8G#	4r	4r	4r	4r	8gg#	4gg#	4gg#	8G#
.	.	16g#	16g#	.	.	.	.	.	.	.	.	.	.
.	8D	16d	16d	8d	8D	.	.	.	.	8dd	.	.	8D
.	.	16d	16d	.	.	.	.	.	.	.	.	.	.
=78	=78	=78	=78	=78	=78	=78	=78	=78	=78	=78	=78	=78	=78
2r	8A	16a	16a	8a	8A	2r	2r	2r	2r	8aa	4aa	4aa	8A
.	.	16a	16a	.	.	.	.	.	.	.	.	.	.
.	8C	16c	16c	8c	8C	.	.	.	.	8cc	.	.	8C
.	.	16c	16c	.	.	.	.	.	.	.	.	.	.
.	8G#	16b	16b	8g#	8G#	.	.	.	.	8bb	4bb	4bb	8G#
.	.	16b	16b	.	.	.	.	.	.	.	.	.	.
.	8BB	16B	16B	8B	8BB	.	.	.	.	8b	.	.	8BB
.	.	16B	16B	.	.	.	.	.	.	.	.	.	.
=79	=79	=79	=79	=79	=79	=79	=79	=79	=79	=79	=79	=79	=79
2r	8A	16cc	16cc	8a	8A	2r	2r	2r	2r	8ccc	4ccc	4ccc	8A
.	.	16cc	16cc	.	.	.	.	.	.	.	.	.	.
.	8AA	16A	16A	8A	8AA	.	.	.	.	8a	.	.	8AA
.	.	16A	16A	.	.	.	.	.	.	.	.	.	.
.	8G	16cc#	16cc#	8g	8G	.	.	.	.	8ccc#	4ccc#	4ee	8G
.	.	16cc#	16cc#	.	.	.	.	.	.	.	.	.	.
.	8GG	16a	16a	8G	8GG	.	.	.	.	8a	.	.	8GG
.	.	16a	16a	.	.	.	.	.	.	.	.	.	.
=80	=80	=80	=80	=80	=80	=80	=80	=80	=80	=80	=80	=80	=80
2r	8F#	16dd	16dd	8f#	8F#	2r	2r	2r	2r	8ddd	4ddd	[2dd	8F#
.	.	16dd	16dd	.	.	.	.	.	.	.	.	.	.
.	8FF#	16a	16a	8F#	8FF#	.	.	.	.	8dd	.	.	8FF#
.	.	16a	16a	.	.	.	.	.	.	.	.	.	.
.	8C	16ff#	16ff#	8cc	8c	.	.	.	.	8ff#	4ff#	.	8C
.	.	16ff#	16ff#	.	.	.	.	.	.	.	.	.	.
.	8c	16dd	16dd	8c	8C	.	.	.	.	8dd	.	.	8c
.	.	16dd	16dd	.	.	.	.	.	.	.	.	.	.
=81	=81	=81	=81	=81	=81	=81	=81	=81	=81	=81	=81	=81	=81
2r	8B	16gg	16gg	8b	8B	2r	2r	2r	2r	8gg	4gg	2dd_	8B
.	.	16gg	16gg	.	.	.	.	.	.	.	.	.	.
.	8BB	16dd	16dd	8B	8BB	.	.	.	.	8dd	.	.	8BB
.	.	16dd	16dd	.	.	.	.	.	.	.	.	.	.
.	8F#	16ccc	16ccc	8f#	8F#	.	.	.	.	8ccc	4ccc	.	8F#
.	.	16ccc	16ccc	.	.	.	.	.	.	.	.	.	.
.	8FF#	16dd	16dd	8F#	8FF#	.	.	.	.	8dd	.	.	8FF#
.	.	16dd	16dd	.	.	.	.	.	.	.	.	.	.
=82	=82	=82	=82	=82	=82	=82	=82	=82	=82	=82	=82	=82	=82
2r	8G	16bb	16bb	8g	8G	4r	4r	4r	4r	8bb	4bb	4dd]	8G
.	.	16bb	16bb	.	.	.	.	.	.	.	.	.	.
.	8GG	16dd	16dd	8G	8GG	.	.	.	.	8dd	.	.	8GG
.	.	16dd	16dd	.	.	.	.	.	.	.	.	.	.
.	8c	16aa	16aa	8cc	8c	4ee	4cc	4ee	4cc	8aa	4aa	4ee	8c
.	.	16aa	16aa	.	.	.	.	.	.	.	.	.	.
.	8C	16cc	16cc	8c	8C	.	.	.	.	8cc	.	.	8C
.	.	16cc	16cc	.	.	.	.	.	.	.	.	.	.
=83	=83	=83	=83	=83	=83	=83	=83	=83	=83	=83	=83	=83	=83
2r	8d	16gg	16gg	8dd	8d	4dd	4dd	4dd	4dd	8gg	4gg	4b	8d
.	.	16gg	16gg	.	.	.	.	.	.	.	.	.	.
.	8D	16b	16b	8d	8D	.	.	.	.	8b	.	.	8D
.	.	16b	16b	.	.	.	.	.	.	.	.	.	.
.	8d	16ff#	16ff#	8dd	8d	4dd	4dd	4dd	4dd	8ff#	4ff#	4a	8d
.	.	16ff#	16ff#	.	.	.	.	.	.	.	.	.	.
.	8D	16a	16a	8d	8D	.	.	.	.	8a	.	.	8D
.	.	16a	16a	.	.	.	.	.	.	.	.	.	.
=84	=84	=84	=84	=84	=84	=84	=84	=84	=84	=84	=84	=84	=84
4GG	8G	4gg	4gg	8g	8G	4dd	4g	4dd	4g	4gg	4gg	4g	8G
.	8GG	.	.	8G	8GG	.	.	.	.	.	.	.	8GG
4r	8GG	8r	8r	8G	8GG	4r	4r	4r	4r	4r	4r	4r	8GG
.	8r	8dd	8b	8r	8r	.	.	.	.	.	.	.	8r
=85	=85	=85	=85	=85	=85	=85	=85	=85	=85	=85	=85	=85	=85
2r	2r	4dd	4b	8r	2r	2r	2r	2r	2r	2r	2r	2r	2r
.	.	.	.	8g	.	.	.	.	.	.	.	.	.
.	.	8r	8r	8g	.	.	.	.	.	.	.	.	.
.	.	8dd#	8b	8r	.	.	.	.	.	.	.	.	.
=86	=86	=86	=86	=86	=86	=86	=86	=86	=86	=86	=86	=86	=86
2r	2r	4dd#	4b	8r	2r	2r	2r	2r	2r	2r	2r	2r	2r
.	.	.	.	8g	.	.	.	.	.	.	.	.	.
.	.	8r	8r	8g	.	.	.	.	.	.	.	.	.
.	.	8ee	8b	8r	.	.	.	.	.	.	.	.	.
=87	=87	=87	=87	=87	=87	=87	=87	=87	=87	=87	=87	=87	=87
2r	2r	4ee	4b	8r	2r	2r	2r	2r	2r	2r	2r	2r	2r
.	.	.	.	8g	.	.	.	.	.	.	.	.	.
.	.	8r	8r	8g	.	.	.	.	.	.	.	.	.
.	.	8cc#	8b-	8r	.	.	.	.	.	.	.	.	.
=88	=88	=88	=88	=88	=88	=88	=88	=88	=88	=88	=88	=88	=88
2r	2r	4cc#	4b-	8r	2r	2r	2r	2r	2r	2r	2r	2r	2r
.	.	.	.	8g	.	.	.	.	.	.	.	.	.
.	.	8r	8r	8g	.	.	.	.	.	.	.	.	.
.	.	8dd	8a	8r	.	.	.	.	.	.	.	.	.
=89	=89	=89	=89	=89	=89	=89	=89	=89	=89	=89	=89	=89	=89
2r	2r	4dd	4a	8r	4.r	2r	2r	2r	2r	2r	2r	2r	2r
.	.	.	.	8f#	.	.	.	.	.	.	.	.	.
.	.	8r	8r	8f#	.	.	.	.	.	.	.	.	.
.	.	8ccc	8g	8cc	8e	.	.	.	.	.	.	.	.
=90	=90	=90	=90	=90	=90	=90	=90	=90	=90	=90	=90	=90	=90
4GG	2r	4.ccc	[2g	4.cc	4.e	4g	4G	4g	4G	2r	2r	2r	2r
4r	.	.	.	.	.	4r	4r	4r	4r	.	.	.	.
.	.	8bb	.	8b	8d	.	.	.	.	.	.	.	.
=91	=91	=91	=91	=91	=91	=91	=91	=91	=91	=91	=91	=91	=91
2r	2r	8bb	4.g]	8b	8d	2r	2r	2r	2r	2r	2r	2r	2r
.	.	8aa	.	8a	8c	.	.	.	.	.	.	.	.
.	.	8aa	.	8a	8c	.	.	.	.	.	.	.	.
.	.	8ccc	8g	8cc	8e	.	.	.	.	.	.	.	.
=92	=92	=92	=92	=92	=92	=92	=92	=92	=92	=92	=92	=92	=92
4GG	2r	4.ccc	[2g	4.cc	4.e	4g	4G	4g	4G	2r	2r	2r	2r
4r	.	.	.	.	.	4r	4r	4r	4r	.	.	.	.
.	.	8bb	.	8b	8d	.	.	.	.	.	.	.	.
=93	=93	=93	=93	=93	=93	=93	=93	=93	=93	=93	=93	=93	=93
2r	2r	8bb	4.g]	8b	8d	2r	2r	2r	2r	2r	2r	2r	2r
.	.	8aa	.	8a	8c	.	.	.	.	.	.	.	.
.	.	8aa	.	8a	8c	.	.	.	.	.	.	.	.
.	.	8ccc	8g	8cc	8e	.	.	.	.	.	.	.	.
=94	=94	=94	=94	=94	=94	=94	=94	=94	=94	=94	=94	=94	=94
4GG	2r	4.ccc	4.g	4.cc	4.e	4g	4G	4g	4G	2r	2r	2r	2r
4r	.	.	.	.	.	4r	4r	4r	4r	.	.	.	.
.	.	8bb	8f#	8b	8d	.	.	.	.	.	.	.	.
=95	=95	=95	=95	=95	=95	=95	=95	=95	=95	=95	=95	=95	=95
2r	2r	8bb	8f#	8b	8d	2r	2r	2r	2r	2r	2r	2r	2r
.	.	8aa	8e	8a	8c	.	.	.	.	.	.	.	.
.	.	8aa	8e	8a	8c	.	.	.	.	.	.	.	.
.	.	8gg	8d	8g	8B	.	.	.	.	.	.	.	.
=96	=96	=96	=96	=96	=96	=96	=96	=96	=96	=96	=96	=96	=96
2r	2r	8gg	8d	8g	8B	2r	2r	2r	2r	2r	2r	2r	2r
.	.	8ff#	8c	8f#	8A	.	.	.	.	.	.	.	.
.	.	8ff#	8c	8f#	8A	.	.	.	.	.	.	.	.
.	.	8ee	8B	8e	8G	.	.	.	.	.	.	.	.
=97	=97	=97	=97	=97	=97	=97	=97	=97	=97	=97	=97	=97	=97
2r	2r	8ee	8B	8e	8G	2r	2r	2r	2r	2r	2r	2r	2r
.	.	8dd	8A	8d	8F#	.	.	.	.	.	.	.	.
.	.	8dd	8A	8d	8F#	.	.	.	.	.	.	.	.
.	.	8cc	8f#	8d	8D	.	.	.	.	.	.	.	.
=98	=98	=98	=98	=98	=98	=98	=98	=98	=98	=98	=98	=98	=98
2r	2r	8b	8g	8d	8G	2r	2r	2r	2r	2r	2r	2r	2r
.	.	16a	16f#	8d	8G	.	.	.	.	.	.	.	.
.	.	16b	16g	.	.	.	.	.	.	.	.	.	.
.	.	8cc	8e	8e	8C	.	.	.	.	.	.	.	.
.	.	8a	8c	8e	8C	.	.	.	.	.	.	.	.
=99	=99	=99	=99	=99	=99	=99	=99	=99	=99	=99	=99	=99	=99
2r	2r	8g	8B	8d	8D	2r	2r	2r	2r	2r	2r	2r	2r
.	.	16f#	16A	8d	8D	.	.	.	.	.	.	.	.
.	.	16g	16B	.	.	.	.	.	.	.	.	.	.
.	.	8a	8c	8d	8D	.	.	.	.	.	.	.	.
.	.	8f#	8A	8d	8D	.	.	.	.	.	.	.	.
=100	=100	=100	=100	=100	=100	=100	=100	=100	=100	=100	=100	=100	=100
4GG	[2GG	4g	4G	16G	8GG	[2g	[2G	[2g	[2G	4g	4r	4g	[2G
.	.	.	.	16G	.	.	.	.	.	.	.	.	.
.	.	.	.	16G	8G	.	.	.	.	.	.	.	.
.	.	.	.	16G	.	.	.	.	.	.	.	.	.
4r	.	4gg	4ee	16G	8G	.	.	.	.	4gg	4gg	4ee	.
.	.	.	.	16G	.	.	.	.	.	.	.	.	.
.	.	.	.	16G	8G	.	.	.	.	.	.	.	.
.	.	.	.	16G	.	.	.	.	.	.	.	.	.
=101	=101	=101	=101	=101	=101	=101	=101	=101	=101	=101	=101	=101	=101
4GG	2GG_	4ff#	4dd#	16G	8G	2g_	2G_	2g_	2G_	4ff#	4ff#	4dd#	2G_
.	.	.	.	16G	.	.	.	.	.	.	.	.	.
.	.	.	.	16G	8G	.	.	.	.	.	.	.	.
.	.	.	.	16G	.	.	.	.	.	.	.	.	.
4r	.	4ff	4dd	16G	8G	.	.	.	.	4ff	4ff	4dd	.
.	.	.	.	16G	.	.	.	.	.	.	.	.	.
.	.	.	.	16G	8G	.	.	.	.	.	.	.	.
.	.	.	.	16G	.	.	.	.	.	.	.	.	.
=102	=102	=102	=102	=102	=102	=102	=102	=102	=102	=102	=102	=102	=102
4GG	2GG_	4ee	4cc#	16G	8G	2g_	2G_	2g_	2G_	4ee	4ee	4cc#	2G_
.	.	.	.	16G	.	.	.	.	.	.	.	.	.
.	.	.	.	16G	8G	.	.	.	.	.	.	.	.
.	.	.	.	16G	.	.	.	.	.	.	.	.	.
4r	.	4ee-	4cc	16G	8G	.	.	.	.	4ee-	4ee-	4cc	.
.	.	.	.	16G	.	.	.	.	.	.	.	.	.
.	.	.	.	16G	8G	.	.	.	.	.	.	.	.
.	.	.	.	16G	.	.	.	.	.	.	.	.	.
=103	=103	=103	=103	=103	=103	=103	=103	=103	=103	=103	=103	=103	=103
4GG	2GG]	4dd	4b	16G	8G	2g_	2G_	2g_	2G_	4dd	4dd	4b	2G]
.	.	.	.	16G	.	.	.	.	.	.	.	.	.
.	.	.	.	16G	8G	.	.	.	.	.	.	.	.
.	.	.	.	16G	.	.	.	.	.	.	.	.	.
4r	.	4cc#	4a#	16G	8G	.	.	.	.	4cc#	4cc#	4a#	.
.	.	.	.	16G	.	.	.	.	.	.	.	.	.
.	.	.	.	16G	8G	.	.	.	.	.	.	.	.
.	.	.	.	16G	.	.	.	.	.	.	.	.	.
=104	=104	=104	=104	=104	=104	=104	=104	=104	=104	=104	=104	=104	=104
4GG	8GG	8dd	8b	8G	8G	4g]	4G]	4g]	4G]	8dd	8dd	8b	8G
.	8r	8r	8r	8r	8r	.	.	.	.	8r	8r	8r	8r
4r	8E	8cc	8g	8c	8E	4r	4r	4r	4r	8ccc	8cc	8g	8E
.	8r	8r	8r	8r	8r	.	.	.	.	8r	8r	8r	8r
=105	=105	=105	=105	=105	=105	=105	=105	=105	=105	=105	=105	=105	=105
2r	8D	8b	8g	8d	8D	2r	2r	2r	2r	8bb	8b	8g	8D
.	8r	8r	8r	8r	8r	.	.	.	.	8r	8r	8r	8r
.	8C#	8a	8g	8e	8C#	.	.	.	.	8aa	8a	8g	8C#
.	8r	8r	8r	8r	8r	.	.	.	.	8r	8r	8r	8r
=106	=106	=106	=106	=106	=106	=106	=106	=106	=106	=106	=106	=106	=106
2r	4D	2dd 2d	4b 4d	4d	4D	2r	2r	2r	2r	2ddd	2dd	4g	4D
.	4r	.	4r	4r	4r	.	.	.	.	.	.	4r	4r
=107	=107	=107	=107	=107	=107	=107	=107	=107	=107	=107	=107	=107	=107
2r	4.c	4.cc	4f# 4c	4A	4D	2r	2r	2r	2r	4.ccc	4.cc	4ff#	4.c
.	.	.	4r	4r	4r	.	.	.	.	.	.	4r	.
.	16B	16b	.	.	.	.	.	.	.	16bb	16b	.	16B
.	16A	16a	.	.	.	.	.	.	.	16aa	16a	.	16A
=108	=108	=108	=108	=108	=108	=108	=108	=108	=108	=108	=108	=108	=108
4GG	8G	4g	4g 4B	4B	4G	4dd	4g	4dd	4g	4gg	8g	8r	8G
.	8G	.	.	.	.	.	.	.	.	.	8bb	8gg	8B
4r	8B	4r	4r	4r	4r	4r	4r	4r	4r	4r	8ddd	8bb	8d
.	8G	.	.	.	.	.	.	.	.	.	8bb	8gg	8B
=109	=109	=109	=109	=109	=109	=109	=109	=109	=109	=109	=109	=109	=109
2r	4.c	4.cc	4ff# 4d 4a	4A	4D	4dd	4dd	4dd	4dd	4.ccc	4ccc	4aa	4.c
.	.	.	4r	4r	4r	4r	4r	4r	4r	.	4r	4r	.
.	16B	16b	.	.	.	.	.	.	.	16bb	.	.	16B
.	16A	16a	.	.	.	.	.	.	.	16aa	.	.	16A
=110	=110	=110	=110	=110	=110	=110	=110	=110	=110	=110	=110	=110	=110
4GG	8G	4g	4gg 4d 4b	4B	4G	4dd	4g	4dd	4g	4gg	8gg	8r	8G
.	8G	.	.	.	.	.	.	.	.	.	8bb	8gg	8B
4r	8B	4r	4r	4r	4r	4r	4r	4r	4r	4r	8ddd	8bb	8d
.	8G	.	.	.	.	.	.	.	.	.	8bb	8gg	8B
=111	=111	=111	=111	=111	=111	=111	=111	=111	=111	=111	=111	=111	=111
2r	4.c	4.cc	4ff# 4a 4d	4A	4D	4dd	4dd	4dd	4dd	4.ccc	4ccc	4aa	4.c
.	.	.	4r	4r	4r	4r	4r	4r	4r	.	4r	4r	.
.	16B	16b	.	.	.	.	.	.	.	16bb	.	.	16B
.	16A	16a	.	.	.	.	.	.	.	16aa	.	.	16A
=112	=112	=112	=112	=112	=112	=112	=112	=112	=112	=112	=112	=112	=112
4GG	4G	4g	4gg 4d 4b	4B	4G	4dd	4g	4dd	4g	4gg	4gg	4gg	4G
4r	4r	4r	4r	4r	4r	4r	4r	4r	4r	4r	4r	4r	4r
=113	=113	=113	=113	=113	=113	=113	=113	=113	=113	=113	=113	=113	=113
4GG	4GG	4b 4gg	4b 4gg	4d 4B	4G	4dd	4g	4dd	4g	4gg	4gg	4b	4GG
4GG	4GG	4bb 4dd	4dd 4bb	4d 4B	4G	4dd	4g	4dd	4g	4bb	4bb	4dd	4GG
=114	=114	=114	=114	=114	=114	=114	=114	=114	=114	=114	=114	=114	=114
4GG	4GG	4gg 4b	4gg 4b	4B 4d	4G	4dd	4g	4dd	4g	4gg	4gg	4b	4GG
4r	4r	4r	4r	4r	4r	4r	4r	4r	4r	4r	4r	4r	4r
=115	=115	=115	=115	=115	=115	=115	=115	=115	=115	=115	=115	=115	=115
2r	2r	2r	2r	2r	2r	2r	2r	2r	2r	2r	2r	2r	2r
=116	=116	=116	=116	=116	=116	=116	=116	=116	=116	=116	=116	=116	=116
2r	2A	2r	2A	2A	2r	2r	2r	2r	2r	2r	2r	2r	2A
=117	=117	=117	=117	=117	=117	=117	=117	=117	=117	=117	=117	=117	=117
2r	2A	2r	2A	2A	2r	2r	2r	2r	2r	2r	2r	2r	2A
=118	=118	=118	=118	=118	=118	=118	=118	=118	=118	=118	=118	=118	=118
2r	[2c	2r	2A	[2c	2F	[2cc	[2c	[2cc	[2c	2r	[2cc	[2a	[2c
=119	=119	=119	=119	=119	=119	=119	=119	=119	=119	=119	=119	=119	=119
2r	2c_	4.r	2A	2c]	2F	2cc_	2c_	2cc_	2c_	4.r	2cc]	2a]	2c_
.	.	8a	.	.	.	.	.	.	.	8aa	.	.	.
=120	=120	=120	=120	=120	=120	=120	=120	=120	=120	=120	=120	=120	=120
2r	2c_	8b-	2e 2c	2G 2e	2F	2cc_	2c_	2cc_	2c_	8bb-	2ee	2b-	2c_
.	.	16a	.	.	.	.	.	.	.	16aa	.	.	.
.	.	16b-	.	.	.	.	.	.	.	16bb-	.	.	.
.	.	8g	.	.	.	.	.	.	.	8gg	.	.	.
.	.	8ee	.	.	.	.	.	.	.	8ee	.	.	.
=121	=121	=121	=121	=121	=121	=121	=121	=121	=121	=121	=121	=121	=121
2r	2c_	8ff	2f 2c	2A 2f	2F	2cc_	2c_	2cc_	2c_	8ff	2ff	2a	2c_
.	.	8aa	.	.	.	.	.	.	.	8aa	.	.	.
.	.	8ff	.	.	.	.	.	.	.	8ff	.	.	.
.	.	8a	.	.	.	.	.	.	.	8aa	.	.	.
=122	=122	=122	=122	=122	=122	=122	=122	=122	=122	=122	=122	=122	=122
2r	2c_	8b-	2c 2e	2G 2e	2F	2cc_	2c_	2cc_	2c_	8bb-	2ee	2b-	2c_
.	.	16a	.	.	.	.	.	.	.	16aa	.	.	.
.	.	16b-	.	.	.	.	.	.	.	16bb-	.	.	.
.	.	8g	.	.	.	.	.	.	.	8gg	.	.	.
.	.	8ee	.	.	.	.	.	.	.	8ee	.	.	.
=123	=123	=123	=123	=123	=123	=123	=123	=123	=123	=123	=123	=123	=123
2r	2c_	8ff	2f 2c	2A 2f	2F	2cc_	2c_	2cc_	2c_	8ff	2ff	2a	2c_
.	.	8aa	.	.	.	.	.	.	.	8aa	.	.	.
.	.	8ff	.	.	.	.	.	.	.	8ff	.	.	.
.	.	8a	.	.	.	.	.	.	.	8aa	.	.	.
=124	=124	=124	=124	=124	=124	=124	=124	=124	=124	=124	=124	=124	=124
2r	2c_	8b-	2e 2c	2G 2e	2F	2cc_	2c_	2cc_	2c_	8bb-	2ee	2b-	2c_
.	.	16a	.	.	.	.	.	.	.	16aa	.	.	.
.	.	16b-	.	.	.	.	.	.	.	16bb-	.	.	.
.	.	8g	.	.	.	.	.	.	.	8gg	.	.	.
.	.	8ee	.	.	.	.	.	.	.	8ee	.	.	.
=125	=125	=125	=125	=125	=125	=125	=125	=125	=125	=125	=125	=125	=125
2r	2c]	8ff	2f 2c	2A 2f	2F	4cc]	4c]	4cc]	4c]	8ff	2ff	2a	2c]
.	.	8ccc	.	.	.	.	.	.	.	8ccc	.	.	.
.	.	8aa	.	.	.	4r	4r	4r	4r	8aa	.	.	.
.	.	8ff	.	.	.	.	.	.	.	8ff	.	.	.
=126	=126	=126	=126	=126	=126	=126	=126	=126	=126	=126	=126	=126	=126
2r	2c	8ee-	2f# 2a	2e- 2c	2F#	2r	2r	2r	2r	8ee-	4ee-	2a	2c
.	.	8cc	.	.	.	.	.	.	.	8cc	.	.	.
.	.	8a	.	.	.	.	.	.	.	8a	4cc	.	.
.	.	8f#	.	.	.	.	.	.	.	8f#	.	.	.
=127	=127	=127	=127	=127	=127	=127	=127	=127	=127	=127	=127	=127	=127
2r	2G	4g	2g	4d 4B-	4G	[2g	[2G	[2g	[2G	4g	4b-	4g	2G
.	.	4r	.	4r	4r	.	.	.	.	4r	4r	4r	.
=128	=128	=128	=128	=128	=128	=128	=128	=128	=128	=128	=128	=128	=128
2r	2G	2r	2g	2r	2r	2g_	2G_	2g_	2G_	2r	2r	2r	2G
=129	=129	=129	=129	=129	=129	=129	=129	=129	=129	=129	=129	=129	=129
2r	[2B-	2r	[2g 2B-	[2B-	2E-	2g_	2G_	2g_	2G_	2r	[2gg	[2b-	[2B-
=130	=130	=130	=130	=130	=130	=130	=130	=130	=130	=130	=130	=130	=130
2r	2B-_	4.r	2g 2B-]	2B-]	2E-	2g]	2G]	2g]	2G]	4.r	2gg]	2b-]	2B-_
.	.	8gg	.	.	.	.	.	.	.	8gg	.	.	.
=131	=131	=131	=131	=131	=131	=131	=131	=131	=131	=131	=131	=131	=131
2r	2B-_	8aa-	2b- 2f	2B- 2d	2E-	2r	2r	2r	2r	8aa-	2aa-	2dd	2B-_
.	.	16gg	.	.	.	.	.	.	.	16gg	.	.	.
.	.	16aa-	.	.	.	.	.	.	.	16aa-	.	.	.
.	.	8ff	.	.	.	.	.	.	.	8ff	.	.	.
.	.	8dd	.	.	.	.	.	.	.	8dd	.	.	.
=132	=132	=132	=132	=132	=132	=132	=132	=132	=132	=132	=132	=132	=132
2r	2B-_	8ee-	2b- 2g	2e- 2B-	2E-	2r	2r	2r	2r	8ee-	2gg	2ee-	2B-_
.	.	8gg	.	.	.	.	.	.	.	8gg	.	.	.
.	.	8b-	.	.	.	.	.	.	.	8b-	.	.	.
.	.	8gg	.	.	.	.	.	.	.	8gg	.	.	.
=133	=133	=133	=133	=133	=133	=133	=133	=133	=133	=133	=133	=133	=133
2r	2B-_	8aa-	2f 2b-	2d 2B-	2E-	2r	2r	2r	2r	8aa-	2aa-	2dd	2B-_
.	.	16gg	.	.	.	.	.	.	.	16gg	.	.	.
.	.	16aa-	.	.	.	.	.	.	.	16aa-	.	.	.
.	.	8ff	.	.	.	.	.	.	.	8ff	.	.	.
.	.	8dd	.	.	.	.	.	.	.	8dd	.	.	.
=134	=134	=134	=134	=134	=134	=134	=134	=134	=134	=134	=134	=134	=134
2r	2B-_	8ee-	2b- 2g	2e- 2B-	2E-	2r	2r	2r	2r	8ee-	2gg	2ee-	2B-_
.	.	8gg	.	.	.	.	.	.	.	8gg	.	.	.
.	.	8b-	.	.	.	.	.	.	.	8b-	.	.	.
.	.	8gg	.	.	.	.	.	.	.	8gg	.	.	.
=135	=135	=135	=135	=135	=135	=135	=135	=135	=135	=135	=135	=135	=135
2r	2B-]	8aa-	2b- 2f	2B- 2d	2E-	2r	2r	2r	2r	8aa-	2aa-	2dd	2B-]
.	.	16gg	.	.	.	.	.	.	.	16gg	.	.	.
.	.	16aa-	.	.	.	.	.	.	.	16aa-	.	.	.
.	.	8ff	.	.	.	.	.	.	.	8ff	.	.	.
.	.	8dd	.	.	.	.	.	.	.	8dd	.	.	.
=136	=136	=136	=136	=136	=136	=136	=136	=136	=136	=136	=136	=136	=136
2r	[2B-	16ee-	[2g 2B-	2e- 2B-	2E-	2r	2r	2r	2r	8ee-	[2gg	[2b-	[2g
.	.	16ee-	.	.	.	.	.	.	.	.	.	.	.
.	.	16bb-	.	.	.	.	.	.	.	8bb-	.	.	.
.	.	16bb-	.	.	.	.	.	.	.	.	.	.	.
.	.	16gg	.	.	.	.	.	.	.	8gg	.	.	.
.	.	16gg	.	.	.	.	.	.	.	.	.	.	.
.	.	16ee-	.	.	.	.	.	.	.	8ee-	.	.	.
.	.	16ee-	.	.	.	.	.	.	.	.	.	.	.
=137	=137	=137	=137	=137	=137	=137	=137	=137	=137	=137	=137	=137	=137
2r	2B-_	16dd	2g 2B-_	2d	2D	2r	2r	2r	2r	8dd	2gg_	2b-_	2g_
.	.	16dd	.	.	.	.	.	.	.	.	.	.	.
.	.	16bb-	.	.	.	.	.	.	.	8bb-	.	.	.
.	.	16bb-	.	.	.	.	.	.	.	.	.	.	.
.	.	16gg	.	.	.	.	.	.	.	8gg	.	.	.
.	.	16gg	.	.	.	.	.	.	.	.	.	.	.
.	.	16dd	.	.	.	.	.	.	.	8dd	.	.	.
.	.	16dd	.	.	.	.	.	.	.	.	.	.	.
=138	=138	=138	=138	=138	=138	=138	=138	=138	=138	=138	=138	=138	=138
2r	2B-_	16cc#	2g 2B-_	[2c#	2C#	2r	2r	2r	2r	8cc#	2gg_	2b-_	2g_
.	.	16cc#	.	.	.	.	.	.	.	.	.	.	.
.	.	16bb-	.	.	.	.	.	.	.	8bb-	.	.	.
.	.	16bb-	.	.	.	.	.	.	.	.	.	.	.
.	.	16aa	.	.	.	.	.	.	.	8aa	.	.	.
.	.	16aa	.	.	.	.	.	.	.	.	.	.	.
.	.	16gg	.	.	.	.	.	.	.	8gg	.	.	.
.	.	16gg	.	.	.	.	.	.	.	.	.	.	.
=139	=139	=139	=139	=139	=139	=139	=139	=139	=139	=139	=139	=139	=139
2r	2B-]	16ff#	2g 2B-]	2c#]	2c#	2r	2r	2r	2r	8ff#	2gg]	2b-]	2g]
.	.	16ff#	.	.	.	.	.	.	.	.	.	.	.
.	.	16gg	.	.	.	.	.	.	.	8gg	.	.	.
.	.	16gg	.	.	.	.	.	.	.	.	.	.	.
.	.	16aa	.	.	.	.	.	.	.	8aa	.	.	.
.	.	16aa	.	.	.	.	.	.	.	.	.	.	.
.	.	16gg	.	.	.	.	.	.	.	8gg	.	.	.
.	.	16gg	.	.	.	.	.	.	.	.	.	.	.
=140	=140	=140	=140	=140	=140	=140	=140	=140	=140	=140	=140	=140	=140
2r	4A	4ff#	4A 4f#	4d	4d	2r	2r	2r	2r	4ff#	4ff#	4a	4f#
.	4r	[4ddd	8r	8r	8r	.	.	.	.	4r	[4ddd	4ff#	4r
.	.	.	8f#	8d	8D	.	.	.	.	.	.	.	.
=141	=141	=141	=141	=141	=141	=141	=141	=141	=141	=141	=141	=141	=141
2r	2r	4ddd]	8g	8e	8E	2r	2r	2r	2r	2r	4ddd]	4gg	2r
.	.	.	16f#	16d	16D	.	.	.	.	.	.	.	.
.	.	.	16g	16e	16E	.	.	.	.	.	.	.	.
.	.	4ccc	8a	8f#	8F#	.	.	.	.	.	4ccc	4aa	.
.	.	.	16g	16e	16E	.	.	.	.	.	.	.	.
.	.	.	16a	16f#	16F#	.	.	.	.	.	.	.	.
=142	=142	=142	=142	=142	=142	=142	=142	=142	=142	=142	=142	=142	=142
2r	2r	4bb-	4b-	8g	8G	2r	2r	2r	2r	2r	4bb-	4bb-	2r
.	.	.	.	8b-	8B-	.	.	.	.	.	.	.	.
.	.	8r	[4g	8g	8G	.	.	.	.	.	4r	4r	.
.	.	8g	.	8r	8r	.	.	.	.	.	.	.	.
=143	=143	=143	=143	=143	=143	=143	=143	=143	=143	=143	=143	=143	=143
2r	2r	8a	4g]	2r	2r	2r	2r	2r	2r	2r	2r	2r	2r
.	.	16g	.	.	.	.	.	.	.	.	.	.	.
.	.	16a	.	.	.	.	.	.	.	.	.	.	.
.	.	8b	4f	.	.	.	.	.	.	.	.	.	.
.	.	16a	.	.	.	.	.	.	.	.	.	.	.
.	.	16b	.	.	.	.	.	.	.	.	.	.	.
=144	=144	=144	=144	=144	=144	=144	=144	=144	=144	=144	=144	=144	=144
2r	4.r	8cc	4e	2r	4.r	2r	2r	2r	2r	2r	2r	[2gg	4.r
.	.	8ee	.	.	.	.	.	.	.	.	.	.	.
.	.	[4gg	4g	.	.	.	.	.	.	.	.	.	.
.	8E	.	.	.	8E	.	.	.	.	.	.	.	8E
=145	=145	=145	=145	=145	=145	=145	=145	=145	=145	=145	=145	=145	=145
2r	8F	4gg]	2a	4cc	8F	2r	2r	2r	2r	8r	2aa	4gg]	8F
.	16E	.	.	.	16E	.	.	.	.	8cc	.	.	16E
.	16F	.	.	.	16F	.	.	.	.	.	.	.	16F
.	8D	[4ff	.	8dd	8D	.	.	.	.	8dd	.	[4ff	8D
.	8B	.	.	8b	8B	.	.	.	.	8b	.	.	8B
=146	=146	=146	=146	=146	=146	=146	=146	=146	=146	=146	=146	=146	=146
2r	8c	4ff]	2g	4g	8c	2r	2r	2r	2r	4g	2gg	4ff]	8c
.	8e	.	.	.	8e	.	.	.	.	.	.	.	8e
.	8r	[4ee	.	4cc	8r	.	.	.	.	4cc	.	[4ee	8r
.	8C	.	.	.	8C	.	.	.	.	.	.	.	8C
=147	=147	=147	=147	=147	=147	=147	=147	=147	=147	=147	=147	=147	=147
2r	8D	4ee]	2f	4a	8D	2r	2r	2r	2r	8r	2ff	4ee]	8D
.	16C	.	.	.	16C	.	.	.	.	8a	.	.	16C
.	16D	.	.	.	16D	.	.	.	.	.	.	.	16D
.	8BB	[4dd	.	8b	8BB	.	.	.	.	8b	.	[4dd	8BB
.	8G#	.	.	8g#	8G#	.	.	.	.	8g#	.	.	8G#
=148	=148	=148	=148	=148	=148	=148	=148	=148	=148	=148	=148	=148	=148
2r	8A	4dd]	2e	4e	8A	2r	2r	2r	2r	4e	2ee	4dd]	8A
.	8c	.	.	.	8c	.	.	.	.	.	.	.	8c
.	8r	[4cc	.	4a	8r	.	.	.	.	4a	.	[4cc	8r
.	8AA	.	.	.	8AA	.	.	.	.	.	.	.	8AA
=149	=149	=149	=149	=149	=149	=149	=149	=149	=149	=149	=149	=149	=149
2r	8BB-	4cc]	2d	4f	8BB-	2r	2r	2r	2r	8r	2dd	4cc]	8BB-
.	16AA	.	.	.	16AA	.	.	.	.	8ff	.	.	16AA
.	16BB-	.	.	.	16BB-	.	.	.	.	.	.	.	16BB-
.	8GG	8b-	.	8g	8GG	.	.	.	.	8gg	.	4b-	8GG
.	8E	16a	.	8e	8E	.	.	.	.	8ee	.	.	8E
.	.	16b-	.	.	.	.	.	.	.	.	.	.	.
=150	=150	=150	=150	=150	=150	=150	=150	=150	=150	=150	=150	=150	=150
2r	8F	8a	4c	4c	8F	2r	2r	2r	2r	4cc	4cc	4a	8F
.	8A	8f	.	.	8A	.	.	.	.	.	.	.	8A
.	8r	8cc	4e-	8r	8r	.	.	.	.	4r	4r	4r	8r
.	8F#	16b	.	8a	8F#	.	.	.	.	.	.	.	8F#
.	.	16cc	.	.	.	.	.	.	.	.	.	.	.
=151	=151	=151	=151	=151	=151	=151	=151	=151	=151	=151	=151	=151	=151
2r	8G	8b	4d	8g	8G	2r	2r	2r	2r	2r	2r	2r	8G
.	8B	8g	.	8b	8B	.	.	.	.	.	.	.	8B
.	8r	8dd	4f	8r	8r	.	.	.	.	.	.	.	8r
.	8G#	16cc	.	8b	8G#	.	.	.	.	.	.	.	8G#
.	.	16dd	.	.	.	.	.	.	.	.	.	.	.
=152	=152	=152	=152	=152	=152	=152	=152	=152	=152	=152	=152	=152	=152
2r	8A	8cc	4e	8a	8A	2r	2r	2r	2r	8r	4r	4r	8A
.	8c	8a	.	8cc	8c	.	.	.	.	8aa	.	.	8c
.	8r	8cc	4d#	8r	8r	.	.	.	.	8ccc	4dd#	4a	8r
.	8F	16b	.	8a	8F	.	.	.	.	16bb	.	.	8F
.	.	16a	.	.	.	.	.	.	.	16aa	.	.	.
=153	=153	=153	=153	=153	=153	=153	=153	=153	=153	=153	=153	=153	=153
2r	4E	8ee	4e	8g#	[2E	[2ee	[2e	[2ee	[2e	4ee	[2ee	2g#	4E
.	.	8e	.	8b	.	.	.	.	.	.	.	.	.
.	4B	8r	4G#	4B	.	.	.	.	.	8r	.	.	4B
.	.	8e	.	.	.	.	.	.	.	8ee	.	.	.
=154	=154	=154	=154	=154	=154	=154	=154	=154	=154	=154	=154	=154	=154
2r	4c	8f	4A	4c	2E_	2ee_	2e_	2ee_	2e_	8ff	4ee]	4a	4c
.	.	16e	.	.	.	.	.	.	.	16ee	.	.	.
.	.	16f	.	.	.	.	.	.	.	16ff	.	.	.
.	4d	8d	4B	4d	.	.	.	.	.	8dd	4dd	4b	4d
.	.	8g#	.	.	.	.	.	.	.	8gg#	.	.	.
=155	=155	=155	=155	=155	=155	=155	=155	=155	=155	=155	=155	=155	=155
2r	4e	8a	4c	4e	2E_	2ee_	2e_	2ee_	2e_	4aa	4cc	4a	4e
.	.	8cc	.	.	.	.	.	.	.	.	.	.	.
.	4d	8r	4g#	4d	.	.	.	.	.	8r	4b	4g#	4d
.	.	8b	.	.	.	.	.	.	.	8bb	.	.	.
=156	=156	=156	=156	=156	=156	=156	=156	=156	=156	=156	=156	=156	=156
2r	4.c	8cc	4a	4c	2E_	2ee_	2e_	2ee_	2e_	8ccc	4cc	2a	4.c
.	.	16b	.	.	.	.	.	.	.	16bb	.	.	.
.	.	16cc	.	.	.	.	.	.	.	16ccc	.	.	.
.	.	8a	4f#	4a	.	.	.	.	.	8aa	4dd#	.	.
.	8A	8dd#	.	.	.	.	.	.	.	8dd#	.	.	8A
=157	=157	=157	=157	=157	=157	=157	=157	=157	=157	=157	=157	=157	=157
2r	4E	8ee	4e	4g#	2E_	2ee_	2e_	2ee_	2e_	4ee	2ee	2g#	4E
.	.	8e	.	.	.	.	.	.	.	.	.	.	.
.	4B	8r	4g#	4b	.	.	.	.	.	4r	.	.	4B
.	.	8ee	.	.	.	.	.	.	.	.	.	.	.
=158	=158	=158	=158	=158	=158	=158	=158	=158	=158	=158	=158	=158	=158
2r	4c	8ff	4a	4cc	2E_	2ee_	2e_	2ee_	2e_	2r	4ff	4a	4c
.	.	16ee	.	.	.	.	.	.	.	.	.	.	.
.	.	16ff	.	.	.	.	.	.	.	.	.	.	.
.	4d	8dd	4b	4dd	.	.	.	.	.	.	4gg#	4b	4d
.	.	8gg#	.	.	.	.	.	.	.	.	.	.	.
=159	=159	=159	=159	=159	=159	=159	=159	=159	=159	=159	=159	=159	=159
2r	4e	8aa	4cc	4ee	2E]	4ee]	4e]	4ee]	4e]	2r	4aa	4cc	4e
.	.	8ccc	.	.	.	.	.	.	.	.	.	.	.
.	4A	8eee	4cc#	[4a	.	4r	4r	4r	4r	.	4gg	4cc#	4A
.	.	8gg	.	.	.	.	.	.	.	.	.	.	.
=160	=160	=160	=160	=160	=160	=160	=160	=160	=160	=160	=160	=160	=160
2r	4d	8ff#	4dd	4a]	4D	2r	2r	2r	2r	2r	4ff#	4dd	4d
.	.	8aa	.	.	.	.	.	.	.	.	.	.	.
.	4r	[4ddd	4ff#	8r	8r	.	.	.	.	.	4r	4r	4r
.	.	.	.	8f#	8F#	.	.	.	.	.	.	.	.
=161	=161	=161	=161	=161	=161	=161	=161	=161	=161	=161	=161	=161	=161
2r	2r	4ddd]	2ee	8g	8G	2r	2r	2r	2r	2r	2r	2r	2r
.	.	.	.	16f#	16F#	.	.	.	.	.	.	.	.
.	.	.	.	16g	16G	.	.	.	.	.	.	.	.
.	.	[4ccc	.	8e	8E	.	.	.	.	.	.	.	.
.	.	.	.	8a	8A	.	.	.	.	.	.	.	.
=162	=162	=162	=162	=162	=162	=162	=162	=162	=162	=162	=162	=162	=162
2r	4.r	4ccc]	4dd	8f#	8F#	2r	2r	2r	2r	2r	2r	2r	4.r
.	.	.	.	8dd	8d	.	.	.	.	.	.	.	.
.	.	4bb	[4gg	8r	4r	.	.	.	.	.	.	.	.
.	8B	.	.	8B	.	.	.	.	.	.	.	.	8B
=163	=163	=163	=163	=163	=163	=163	=163	=163	=163	=163	=163	=163	=163
2r	8c	2aa	4gg]	8c	2r	2r	2r	2r	2r	2r	2r	2r	8c
.	16B	.	.	16B	.	.	.	.	.	.	.	.	16B
.	16c	.	.	16c	.	.	.	.	.	.	.	.	16c
.	8A	.	[4ff	8A	.	.	.	.	.	.	.	.	8A
.	8d	.	.	8d	.	.	.	.	.	.	.	.	8d
=164	=164	=164	=164	=164	=164	=164	=164	=164	=164	=164	=164	=164	=164
2r	8B	4gg	4ff]	8B	4.r	2r	2r	2r	2r	2r	4.r	2r	8B
.	8g	.	.	8g	.	.	.	.	.	.	.	.	8g
.	4r	[4ccc	4ee	8r	.	.	.	.	.	.	.	.	4r
.	.	.	.	8g	8E	.	.	.	.	.	8ccc	.	.
=165	=165	=165	=165	=165	=165	=165	=165	=165	=165	=165	=165	=165	=165
2r	4r	4ccc]	2dd	4a	8F	2r	2r	2r	2r	2ddd	8ddd	8r	4r
.	.	.	.	.	16E	.	.	.	.	.	8dd	8aa	.
.	.	.	.	.	16F	.	.	.	.	.	.	.	.
.	[4g	[4bb-	.	[4g	8D	.	.	.	.	.	8r	8bb-	[4g
.	.	.	.	.	8G	.	.	.	.	.	8dd	8b-	.
=166	=166	=166	=166	=166	=166	=166	=166	=166	=166	=166	=166	=166	=166
2r	4g]	4bb-]	2cc	4g]	8E	2r	2r	2r	2r	2ccc	8cc	8r	4g]
.	.	.	.	.	8c	.	.	.	.	.	8ccc	8bb-	.
.	[4f	[4aa	.	[4f	8F	.	.	.	.	.	8r	8aa	[4f
.	.	.	.	.	8f	.	.	.	.	.	8ccc	8a	.
=167	=167	=167	=167	=167	=167	=167	=167	=167	=167	=167	=167	=167	=167
2r	4f]	4aa]	2b	4f]	8d	2r	2r	2r	2r	2bb	8bb	8r	4f]
.	.	.	.	.	16c	.	.	.	.	.	8b	8ff	.
.	.	.	.	.	16d	.	.	.	.	.	.	.	.
.	[4e	[4gg	.	[4e	8e	.	.	.	.	.	8r	8gg	[4e
.	.	.	.	.	8E	.	.	.	.	.	8b	8g	.
=168	=168	=168	=168	=168	=168	=168	=168	=168	=168	=168	=168	=168	=168
2r	4e]	4gg]	2a	4e]	8c	2r	2r	2r	2r	2aa	8a	8r	4e]
.	.	.	.	.	16B	.	.	.	.	.	8aa	8gg	.
.	.	.	.	.	16c	.	.	.	.	.	.	.	.
.	[4d	[4ff	.	[4d	8d	.	.	.	.	.	8r	8ff	[4d
.	.	.	.	.	8D	.	.	.	.	.	8aa	8f	.
=169	=169	=169	=169	=169	=169	=169	=169	=169	=169	=169	=169	=169	=169
2r	4d]	4ff]	2g	4d]	8B	2r	2r	2r	2r	2gg	8gg	8r	4d]
.	.	.	.	.	16A	.	.	.	.	.	8g	8dd	.
.	.	.	.	.	16B	.	.	.	.	.	.	.	.
.	4c	4ee	.	4c	8c	.	.	.	.	.	8r	8ee	4c
.	.	.	.	.	8C	.	.	.	.	.	8gg	8ee	.
=170	=170	=170	=170	=170	=170	=170	=170	=170	=170	=170	=170	=170	=170
2r	4F	8dd	2a	4f	8F	2r	2r	2r	2r	4aa	2aa	8dd	4F
.	.	16cc	.	.	8FF	.	.	.	.	.	.	16cc	.
.	.	16dd	.	.	.	.	.	.	.	.	.	16dd	.
.	4F#	8cc	.	4f#	8F#	.	.	.	.	8cc	.	8cc	4F#
.	.	16b	.	.	8FF#	.	.	.	.	16b	.	16b	.
.	.	16cc	.	.	.	.	.	.	.	16cc	.	16cc	.
=171	=171	=171	=171	=171	=171	=171	=171	=171	=171	=171	=171	=171	=171
4GG	4G	8b	2b 2d	8g	8G	2dd	2g	2dd	2g	[2gg	4.gg	4.b	4G
.	.	8dd	.	8g	8G	.	.	.	.	.	.	.	.
4r	8r	8gg	.	8g	8G	.	.	.	.	.	.	.	8r
.	8B	8dd	.	8g	8G	.	.	.	.	.	8ff	8b	8d
=172	=172	=172	=172	=172	=172	=172	=172	=172	=172	=172	=172	=172	=172
4GG	8c	8ee	8cc	8g	8G	8ee	8cc	8ee	8cc	2gg_	8ee	8cc	8e
.	8e	8gg	8ee	8g	8G	8gg	8ee	8gg	8ee	.	8gg	8ee	8g
4r	8d	8ff	8dd	8g	8G	8ff	8dd	8ff	8dd	.	8ff	8dd	8f
.	8c	8ee	8cc	8g	8G	8ee	8cc	8ee	8cc	.	8ee	8cc	8e
=173	=173	=173	=173	=173	=173	=173	=173	=173	=173	=173	=173	=173	=173
4GG	4B	8dd	2b 2d	8g	8G	2dd	2g	2dd	2g	2gg_	8dd	8b	4d
.	.	8bb	.	8g	8G	.	.	.	.	.	8bb	8dd	.
4r	8r	8ddd	.	8g	8G	.	.	.	.	.	8ddd	8ff	8r
.	8B	8ff	.	8g	8G	.	.	.	.	.	8ff	8b	8d
=174	=174	=174	=174	=174	=174	=174	=174	=174	=174	=174	=174	=174	=174
4GG	8c	8ee	8cc	8g	8G	8ee	8cc	8ee	8cc	2gg_	8ee	8cc	8e
.	8e	8gg	8ee	8g	8G	8gg	8ee	8gg	8ee	.	8gg	8ee	8g
4r	8d	8ff	8dd	8g	8G	8ff	8dd	8ff	8dd	.	8ff	8dd	8f
.	8c	8ee	8cc	8g	8G	8ee	8cc	8ee	8cc	.	8ee	8cc	8e
=175	=175	=175	=175	=175	=175	=175	=175	=175	=175	=175	=175	=175	=175
4GG	4B	8dd	2b 2d	8g	8G	2dd	2g	2dd	2g	2gg_	8dd	8b	4d
.	.	8bb	.	8g	8G	.	.	.	.	.	8bb	8dd	.
4r	8r	8ddd	.	8g	8G	.	.	.	.	.	8ddd	8ff	8r
.	8B	8ff	.	8g	8G	.	.	.	.	.	8ff	8b	8d
=176	=176	=176	=176	=176	=176	=176	=176	=176	=176	=176	=176	=176	=176
4GG	8c	8ee	8cc	8g	8G	8ee	8cc	8ee	8cc	2gg]	8ee	8cc	8e
.	8e	8gg	8ee	8g	8G	8gg	8ee	8gg	8ee	.	8gg	8ee	8g
4r	8d	8ff	8dd	8g	8G	8ff	8dd	8ff	8dd	.	8ff	8dd	8f
.	8c	8ee	8cc	8g	8G	8ee	8cc	8ee	8cc	.	8ee	8cc	8e
=177	=177	=177	=177	=177	=177	=177	=177	=177	=177	=177	=177	=177	=177
4GG	4B	4dd	4b	4g	4G	4dd	4g	4dd	4g	4gg	4dd	4b	4d
4GG	4B	4gg 4d 4b	4G 4gg 4d 4b	4g	4G	4dd	4g	4dd	4g	4gg	4gg	4b	4d
=178	=178	=178	=178	=178	=178	=178	=178	=178	=178	=178	=178	=178	=178
4GG	4B	4gg 4d 4b	4G 4gg 4d 4b	4g	4G	4dd	4g	4dd	4g	4gg	4gg	4b	4d
4r	4r	4r	4r	4r	4r	4r	4r	4r	4r	4r	4r	4r	4r
=179	=179	=179	=179	=179	=179	=179	=179	=179	=179	=179	=179	=179	=179
2r	2r	2r	2r	2r	2C	2r	2r	2r	2r	2r	2r	2r	2r
=180	=180	=180	=180	=180	=180	=180	=180	=180	=180	=180	=180	=180	=180
2r	2r	4.r	2r	2r	2C	2r	2r	2r	2r	2r	2r	2r	2r
.	.	8e	.	.	.	.	.	.	.	.	.	.	.
=181	=181	=181	=181	=181	=181	=181	=181	=181	=181	=181	=181	=181	=181
2r	2r	8f	2r	2r	2C	2r	2r	2r	2r	2r	2r	2r	2r
.	.	16e	.	.	.	.	.	.	.	.	.	.	.
.	.	16f	.	.	.	.	.	.	.	.	.	.	.
.	.	8d	.	.	.	.	.	.	.	.	.	.	.
.	.	8b	.	.	.	.	.	.	.	.	.	.	.
=182	=182	=182	=182	=182	=182	=182	=182	=182	=182	=182	=182	=182	=182
2r	2r	8cc	2r	2r	2C	2r	2r	2r	2r	2r	2r	2r	2r
.	.	8ee	.	.	.	.	.	.	.	.	.	.	.
.	.	8cc	.	.	.	.	.	.	.	.	.	.	.
.	.	8e	.	.	.	.	.	.	.	.	.	.	.
=183	=183	=183	=183	=183	=183	=183	=183	=183	=183	=183	=183	=183	=183
2r	2r	8f	2r	2r	2C	2r	2r	2r	2r	2r	2r	2r	2r
.	.	16e	.	.	.	.	.	.	.	.	.	.	.
.	.	16f	.	.	.	.	.	.	.	.	.	.	.
.	.	8d	.	.	.	.	.	.	.	.	.	.	.
.	.	8b	.	.	.	.	.	.	.	.	.	.	.
=184	=184	=184	=184	=184	=184	=184	=184	=184	=184	=184	=184	=184	=184
2r	2r	8cc	2r	2r	2C	2r	2r	2r	2r	2r	2r	2r	2r
.	.	8ee	.	.	.	.	.	.	.	.	.	.	.
.	.	8cc	.	.	.	.	.	.	.	.	.	.	.
.	.	8e	.	.	.	.	.	.	.	.	.	.	.
=185	=185	=185	=185	=185	=185	=185	=185	=185	=185	=185	=185	=185	=185
2r	2r	8f	2r	2r	2C	2r	2r	2r	2r	2r	2r	2r	2r
.	.	16e	.	.	.	.	.	.	.	.	.	.	.
.	.	16f	.	.	.	.	.	.	.	.	.	.	.
.	.	8d	.	.	.	.	.	.	.	.	.	.	.
.	.	8b	.	.	.	.	.	.	.	.	.	.	.
=186	=186	=186	=186	=186	=186	=186	=186	=186	=186	=186	=186	=186	=186
2r	2r	8cc	2r	2r	4C	2r	2r	2r	2r	2r	2r	2r	2r
.	.	8ee	.	.	.	.	.	.	.	.	.	.	.
.	.	8cc	.	.	8r	.	.	.	.	.	.	.	.
.	.	8g	.	.	8E	.	.	.	.	.	.	.	.
=187	=187	=187	=187	=187	=187	=187	=187	=187	=187	=187	=187	=187	=187
2r	2r	8a	[2c	4r	4F	2r	2r	2r	2r	2r	2r	2r	2r
.	.	8cc	.	.	.	.	.	.	.	.	.	.	.
.	.	8g	.	4G	4E	.	.	.	.	.	.	.	.
.	.	8cc	.	.	.	.	.	.	.	.	.	.	.
=188	=188	=188	=188	=188	=188	=188	=188	=188	=188	=188	=188	=188	=188
2r	2r	2g	2c]	2A	8D	2r	2r	2r	2r	2r	2r	2r	2r
.	.	.	.	.	8D	.	.	.	.	.	.	.	.
.	.	.	.	.	8D	.	.	.	.	.	.	.	.
.	.	.	.	.	8D	.	.	.	.	.	.	.	.
=189	=189	=189	=189	=189	=189	=189	=189	=189	=189	=189	=189	=189	=189
2r	2r	4.f	2B	2B	8GG	2r	2r	2r	2r	2r	2r	2r	2r
.	.	.	.	.	8GG	.	.	.	.	.	.	.	.
.	.	.	.	.	8GG	.	.	.	.	.	.	.	.
.	.	16e	.	.	8GG	.	.	.	.	.	.	.	.
.	.	16f	.	.	.	.	.	.	.	.	.	.	.
=190	=190	=190	=190	=190	=190	=190	=190	=190	=190	=190	=190	=190	=190
4C	8C	4e	4c	4c	4C	2r	2r	2r	2r	2r	4.r	4.r	8C
.	16E	.	.	.	.	.	.	.	.	.	.	.	16E
.	16G	.	.	.	.	.	.	.	.	.	.	.	16G
4r	4c	4r	4r	4r	4r	.	.	.	.	.	.	.	4c
.	.	.	.	.	.	.	.	.	.	.	8gg	8ee	.
=191	=191	=191	=191	=191	=191	=191	=191	=191	=191	=191	=191	=191	=191
4C	2r	2r	2r	2r	2r	2r	2r	2r	2r	2r	8ccc	8aa	2r
.	.	.	.	.	.	.	.	.	.	.	8bb	8gg	.
4r	.	.	.	.	.	.	.	.	.	.	8aa	8ff	.
.	.	.	.	.	.	.	.	.	.	.	8gg	8ee	.
=192	=192	=192	=192	=192	=192	=192	=192	=192	=192	=192	=192	=192	=192
4C	8r	2r	2r	2r	2r	2r	2r	2r	2r	2r	4.gg	4.ee	8r
.	8C	.	.	.	.	.	.	.	.	.	.	.	8C
4r	8E	.	.	.	.	.	.	.	.	.	.	.	8E
.	8C	.	.	.	.	.	.	.	.	.	8ee	8cc	8C
=193	=193	=193	=193	=193	=193	=193	=193	=193	=193	=193	=193	=193	=193
4GG	4G	2r	2r	2r	2r	2r	2r	2r	2r	2r	8ff	8dd	4G
.	.	.	.	.	.	.	.	.	.	.	8ee	8cc	.
4r	4GG	.	.	.	.	.	.	.	.	.	8ff	8dd	4GG
.	.	.	.	.	.	.	.	.	.	.	8dd	8b	.
=194	=194	=194	=194	=194	=194	=194	=194	=194	=194	=194	=194	=194	=194
4C	8C	2r	2r	2r	2r	4.r	4.r	4.r	4.r	2r	4cc	4.cc	8C
.	16E	.	.	.	.	.	.	.	.	.	.	.	16E
.	16G	.	.	.	.	.	.	.	.	.	.	.	16G
8r	8c	.	.	.	.	.	.	.	.	.	8r	.	8c
8GG	8G	.	.	.	.	8dd	8g	8dd	8g	.	8dd	8g	8G
=195	=195	=195	=195	=195	=195	=195	=195	=195	=195	=195	=195	=195	=195
4C	4c	2r	2r	2r	2r	4ee	4cc	4ee	4cc	2r	8ee	8cc	4c
.	.	.	.	.	.	.	.	.	.	.	8ff	8dd	.
8r	8r	.	.	.	.	8r	8r	8r	8r	.	8gg	8ee	8r
8GG	8G	.	.	.	.	8dd	8g	8dd	8g	.	8dd	8b	8G
=196	=196	=196	=196	=196	=196	=196	=196	=196	=196	=196	=196	=196	=196
4C	4c	2r	2r	2r	2r	4ee	4cc	4ee	4cc	2r	8ee	8cc	4c
.	.	.	.	.	.	.	.	.	.	.	8ff	8dd	.
8r	8r	.	.	.	.	8r	8r	8r	8r	.	8gg	8ee	8r
8GG	8G	.	.	.	.	8dd	8g	8dd	8g	.	8dd	8b	8G
=197	=197	=197	=197	=197	=197	=197	=197	=197	=197	=197	=197	=197	=197
4C	4c	2r	2r	2r	2r	4ee	4cc	4ee	4cc	2r	8ee	8cc	4c
.	.	.	.	.	.	.	.	.	.	.	8dd	8b	.
4C	4C	.	.	.	.	4ee	4cc	4ee	4cc	.	8ee	8cc	4C
.	.	.	.	.	.	.	.	.	.	.	8ff	8dd	.
=198	=198	=198	=198	=198	=198	=198	=198	=198	=198	=198	=198	=198	=198
4GG	4G	2r	2gg	2r	2r	4dd	4g	4dd	4g	2gg	4dd	4g	4G
4r	4r	.	.	.	.	4r	4r	4r	4r	.	4r	4r	4r
=199	=199	=199	=199	=199	=199	=199	=199	=199	=199	=199	=199	=199	=199
2r	4.r	2r	2gg	4.r	4.r	2r	2r	2r	2r	2gg	2r	2r	4.r
.	8g	.	.	8g	8B	.	.	.	.	.	.	.	8g
=200	=200	=200	=200	=200	=200	=200	=200	=200	=200	=200	=200	=200	=200
2r	8e	2aa	2gg	8e	8c	2r	2r	2r	2r	2gg	2r	2r	8e
.	8d	.	.	8d	8d	.	.	.	.	.	.	.	8d
.	8c#	.	.	8c#	8e	.	.	.	.	.	.	.	8c#
.	8e	.	.	8e	8c#	.	.	.	.	.	.	.	8e
=201	=201	=201	=201	=201	=201	=201	=201	=201	=201	=201	=201	=201	=201
2r	8f	2aa	2ff	8a	8d	2r	2r	2r	2r	2gg	2r	2r	8f
.	8e	.	.	8g	8e	.	.	.	.	.	.	.	8e
.	8d	.	.	8f	8f	.	.	.	.	.	.	.	8d
.	8f	.	.	8a	8A	.	.	.	.	.	.	.	8f
=202	=202	=202	=202	=202	=202	=202	=202	=202	=202	=202	=202	=202	=202
4GG	8d	2gg	2ff	8f	8B	2dd	2g	2dd	2g	2gg	2r	2r	8d
.	8c	.	.	8e	8c	.	.	.	.	.	.	.	8c
4r	8B	.	.	8d	8d	.	.	.	.	.	.	.	8B
.	8d	.	.	8f	8B	.	.	.	.	.	.	.	8d
=203	=203	=203	=203	=203	=203	=203	=203	=203	=203	=203	=203	=203	=203
4C	8e	4.gg	2ee	8e	8c	2ee	2cc	2ee	2cc	4.gg	4.r	[2cc	8e
.	8d	.	.	8d	8d	.	.	.	.	.	.	.	8d
4r	8c	.	.	8c	8e	.	.	.	.	.	.	.	8c
.	8E	8gg#	.	8e	8E	.	.	.	.	8gg#	8gg#	.	8E
=204	=204	=204	=204	=204	=204	=204	=204	=204	=204	=204	=204	=204	=204
2r	8F	8aa	[2cc	8f	8F	2r	2r	2r	2r	8aa	8aa	2cc_	8F
.	8G	8bb	.	8g	8G	.	.	.	.	8bb	8bb	.	8G
.	8A	8ccc	.	8a	8A	.	.	.	.	8ccc	8ccc	.	8A
.	8E	8gg#	.	8e	8E	.	.	.	.	8gg#	8gg#	.	8E
=205	=205	=205	=205	=205	=205	=205	=205	=205	=205	=205	=205	=205	=205
2r	8F	8aa	4.cc]	8f	8F	2r	2r	2r	2r	8aa	8aa	4cc]	8F
.	8G	8bb	.	8g	8G	.	.	.	.	8bb	8bb	.	8G
.	8A	8ccc	.	8a	8A	.	.	.	.	8ccc	8ccc	4r	8A
.	8C#	8ee	8ee	8c#	8C#	.	.	.	.	8ee	8ee	.	8C#
=206	=206	=206	=206	=206	=206	=206	=206	=206	=206	=206	=206	=206	=206
2r	8D	8ff	[2a	8d	8D	2r	2r	2r	2r	8ff	8ff	[2a	8D
.	8E	8gg	.	8e	8E	.	.	.	.	8gg	8gg	.	8E
.	8F	8aa	.	8f	8F	.	.	.	.	8aa	8aa	.	8F
.	8C#	8ee	.	8c#	8C#	.	.	.	.	8ee	8ee	.	8C#
=207	=207	=207	=207	=207	=207	=207	=207	=207	=207	=207	=207	=207	=207
2r	8D	8ff	4.a]	8d	8D	2r	2r	2r	2r	8ff	8ff	4a]	8D
.	8E	8gg	.	8e	8E	.	.	.	.	8gg	8gg	.	8E
.	8F	8aa	.	8f	8F	.	.	.	.	8aa	8aa	8r	8F
.	8BB	8dd	8dd	8B	8BB	.	.	.	.	8dd	8dd	8dd	8BB
=208	=208	=208	=208	=208	=208	=208	=208	=208	=208	=208	=208	=208	=208
2r	8C	8ee	8cc	8c	8C	2r	2r	2r	2r	8ee	8ee	4.cc	8C
.	8C	8cc	8e	8c	8C	.	.	.	.	8cc	8cc	.	8C
.	8C	8ee	8cc	8c	8C	.	.	.	.	8ee	8ee	.	8C
.	8C	8gg	8ee	8c	8C	.	.	.	.	8gg	8gg	8ee	8C
=209	=209	=209	=209	=209	=209	=209	=209	=209	=209	=209	=209	=209	=209
2r	8G	8gg	8ee	8g	8G	2r	2r	2r	2r	8gg	8gg	8ee	8G
.	8G	8ff	8dd	8g	8G	.	.	.	.	8ff	8ff	8dd	8G
.	8G	8ee	8cc	8g	8G	.	.	.	.	8ee	8ee	8cc	8G
.	8G	8dd	8b	8g	8G	.	.	.	.	8dd	8dd	8b	8G
=210	=210	=210	=210	=210	=210	=210	=210	=210	=210	=210	=210	=210	=210
4C	8c	16cc	16cc	8cc	8c	4cc	4c	4cc	4c	4cc	4cc	4cc	8c
.	.	16cc	16cc	.	.	.	.	.	.	.	.	.	.
.	8C	16c	16c	8c	8C	.	.	.	.	.	.	.	8C
.	.	16c	16c	.	.	.	.	.	.	.	.	.	.
4r	8D-	16d-	16d-	8d-	8D-	4r	4r	4r	4r	4r	4r	4r	8D-
.	.	16d-	16d-	.	.	.	.	.	.	.	.	.	.
.	8C	16c	16c	8c	8C	.	.	.	.	.	.	.	8C
.	.	16c	16c	.	.	.	.	.	.	.	.	.	.
=211	=211	=211	=211	=211	=211	=211	=211	=211	=211	=211	=211	=211	=211
4C	8c	16cc	16cc	8cc	8c	4cc	4c	4cc	4c	2r	2r	2r	8c
.	.	16cc	16cc	.	.	.	.	.	.	.	.	.	.
.	8E	16e	16e	8e	8E	.	.	.	.	.	.	.	8E
.	.	16e	16e	.	.	.	.	.	.	.	.	.	.
4r	8F	16f	16f	8f	8F	4r	4r	4r	4r	.	.	.	8F
.	.	16f	16f	.	.	.	.	.	.	.	.	.	.
.	8E	16e	16e	8e	8E	.	.	.	.	.	.	.	8E
.	.	16e	16e	.	.	.	.	.	.	.	.	.	.
=212	=212	=212	=212	=212	=212	=212	=212	=212	=212	=212	=212	=212	=212
4C	8c	16cc	16cc	8cc	8c	4cc	4c	4cc	4c	2r	2r	2r	8c
.	.	16cc	16cc	.	.	.	.	.	.	.	.	.	.
.	8G	16g	16g	8g	8G	.	.	.	.	.	.	.	8G
.	.	16g	16g	.	.	.	.	.	.	.	.	.	.
4r	8A-	16a-	16a-	8a-	8A-	4r	4r	4r	4r	.	.	.	8A-
.	.	16a-	16a-	.	.	.	.	.	.	.	.	.	.
.	8G	16g	16g	8g	8G	.	.	.	.	.	.	.	8G
.	.	16g	16g	.	.	.	.	.	.	.	.	.	.
=213	=213	=213	=213	=213	=213	=213	=213	=213	=213	=213	=213	=213	=213
4C	8c	16cc	16cc	8cc	8c	4cc	4c	4cc	4c	2r	2r	2r	8c
.	.	16cc	16cc	.	.	.	.	.	.	.	.	.	.
.	8B-	16b-	16b-	8b-	8B-	.	.	.	.	.	.	.	8B-
.	.	16b-	16b-	.	.	.	.	.	.	.	.	.	.
4r	8A	16a	16a	8a	8A	4r	4r	4r	4r	.	.	.	8A
.	.	16a	16a	.	.	.	.	.	.	.	.	.	.
.	8G#	16g#	16g#	8g#	8G#	.	.	.	.	.	.	.	8G#
.	.	16g#	16g#	.	.	.	.	.	.	.	.	.	.
=214	=214	=214	=214	=214	=214	=214	=214	=214	=214	=214	=214	=214	=214
2r	8c	16cc	16cc	8cc	8c	2r	2r	2r	2r	2r	2r	2r	8c
.	.	16cc	16cc	.	.	.	.	.	.	.	.	.	.
.	8A	16a	16a	8a	8A	.	.	.	.	.	.	.	8A
.	.	16a	16a	.	.	.	.	.	.	.	.	.	.
.	8c#	16cc#	16cc#	8cc#	8c#	.	.	.	.	.	.	.	8c#
.	.	16cc#	16cc#	.	.	.	.	.	.	.	.	.	.
.	8G	16g	16g	8g	8G	.	.	.	.	.	.	.	8G
.	.	16g	16g	.	.	.	.	.	.	.	.	.	.
=215	=215	=215	=215	=215	=215	=215	=215	=215	=215	=215	=215	=215	=215
2r	8d	16dd	16dd	8dd	8d	2r	2r	2r	2r	2r	2r	2r	8d
.	.	16dd	16dd	.	.	.	.	.	.	.	.	.	.
.	8F	16f	16f	8f	8F	.	.	.	.	.	.	.	8F
.	.	16f	16f	.	.	.	.	.	.	.	.	.	.
.	8c#	16ee	16ee	8cc#	8c#	.	.	.	.	.	.	.	8c#
.	.	16ee	16ee	.	.	.	.	.	.	.	.	.	.
.	8C#	16e	16e	8c#	8C#	.	.	.	.	.	.	.	8C#
.	.	16e	16e	.	.	.	.	.	.	.	.	.	.
=216	=216	=216	=216	=216	=216	=216	=216	=216	=216	=216	=216	=216	=216
2r	8d	16ff	16ff	8dd	8d	2r	2r	2r	2r	4r	4r	4r	8d
.	.	16ff	16ff	.	.	.	.	.	.	.	.	.	.
.	8D	16d	16d	8d	8D	.	.	.	.	.	.	.	8D
.	.	16d	16d	.	.	.	.	.	.	.	.	.	.
.	8c	16ff#	16ff#	8cc	8c	.	.	.	.	4ff#	4ff#	4a	8c
.	.	16ff#	16ff#	.	.	.	.	.	.	.	.	.	.
.	8C	16dd	16dd	8c	8C	.	.	.	.	.	.	.	8C
.	.	16dd	16dd	.	.	.	.	.	.	.	.	.	.
=217	=217	=217	=217	=217	=217	=217	=217	=217	=217	=217	=217	=217	=217
2r	8B	16gg	16gg	8b	8B	2r	2r	2r	2r	[2gg	4gg	2dd	8B
.	.	16gg	16gg	.	.	.	.	.	.	.	.	.	.
.	8BB	16dd	16dd	8B	8BB	.	.	.	.	.	.	.	8BB
.	.	16dd	16dd	.	.	.	.	.	.	.	.	.	.
.	8F	16bb	16bb	8f	8F	.	.	.	.	.	4bb	.	8F
.	.	16bb	16bb	.	.	.	.	.	.	.	.	.	.
.	8FF	16dd	16dd	8F	8FF	.	.	.	.	.	.	.	8FF
.	.	16dd	16dd	.	.	.	.	.	.	.	.	.	.
=218	=218	=218	=218	=218	=218	=218	=218	=218	=218	=218	=218	=218	=218
2r	8E	16ccc	16ccc	8e	8E	2r	2r	2r	2r	4gg]	4ccc	4gg	8E
.	.	16ccc	16ccc	.	.	.	.	.	.	.	.	.	.
.	8EE	16cc	16cc	8E	8EE	.	.	.	.	.	.	.	8EE
.	.	16cc	16cc	.	.	.	.	.	.	.	.	.	.
.	8F	16aa	16aa	8f	8F	.	.	.	.	4aa	4aa	4ff	8F
.	.	16aa	16aa	.	.	.	.	.	.	.	.	.	.
.	8FF	16cc	16cc	8F	8FF	.	.	.	.	.	.	.	8FF
.	.	16cc	16cc	.	.	.	.	.	.	.	.	.	.
=219	=219	=219	=219	=219	=219	=219	=219	=219	=219	=219	=219	=219	=219
2r	8G	16gg	16gg	8g	8G	2r	2r	2r	2r	[2gg	4gg	4ee	8G
.	.	16gg	16gg	.	.	.	.	.	.	.	.	.	.
.	8GG	16dd	16dd	8G	8GG	.	.	.	.	.	.	.	8GG
.	.	16dd	16dd	.	.	.	.	.	.	.	.	.	.
.	8F	16bb	16bb	8f	8F	.	.	.	.	.	4bb	4dd	8F
.	.	16bb	16bb	.	.	.	.	.	.	.	.	.	.
.	8FF	16dd	16dd	8F	8FF	.	.	.	.	.	.	.	8FF
.	.	16dd	16dd	.	.	.	.	.	.	.	.	.	.
=220	=220	=220	=220	=220	=220	=220	=220	=220	=220	=220	=220	=220	=220
2r	8E	16ccc	16ccc	8e	8E	2r	2r	2r	2r	4gg]	4ccc	4gg	8E
.	.	16ccc	16ccc	.	.	.	.	.	.	.	.	.	.
.	8EE	16cc	16cc	8E	8EE	.	.	.	.	.	.	.	8EE
.	.	16cc	16cc	.	.	.	.	.	.	.	.	.	.
.	8F	16aa	16aa	8f	8F	.	.	.	.	4aa	4aa	4ff	8F
.	.	16aa	16aa	.	.	.	.	.	.	.	.	.	.
.	8FF	16cc	16cc	8F	8FF	.	.	.	.	.	.	.	8FF
.	.	16cc	16cc	.	.	.	.	.	.	.	.	.	.
=221	=221	=221	=221	=221	=221	=221	=221	=221	=221	=221	=221	=221	=221
2r	8G	16gg	16gg	8g	8G	2r	2r	2r	2r	2gg	4gg	4ee	8G
.	.	16gg	16gg	.	.	.	.	.	.	.	.	.	.
.	8GG	16ee	16ee	8G	8GG	.	.	.	.	.	.	.	8GG
.	.	16ee	16ee	.	.	.	.	.	.	.	.	.	.
.	8G	16bb	16bb	8g	8G	.	.	.	.	.	4gg	4dd	8G
.	.	16bb	16bb	.	.	.	.	.	.	.	.	.	.
.	8GG	16dd	16dd	8G	8GG	.	.	.	.	.	.	.	8GG
.	.	16dd	16dd	.	.	.	.	.	.	.	.	.	.
=222	=222	=222	=222	=222	=222	=222	=222	=222	=222	=222	=222	=222	=222
4C	[2CC	4ccc	4ccc	[2C 2G	2C	[2g	[2c	[2g	[2c	4ee	[2gg	[2g	[2G
4r	.	4r	4r	.	.	.	.	.	.	4r	.	.	.
=223	=223	=223	=223	=223	=223	=223	=223	=223	=223	=223	=223	=223	=223
4C	2CC_	4.r	4.r	2C 2G_	2C	2g_	2c_	2g_	2c_	4.r	2gg_	2g_	2G_
4r	.	.	.	.	.	.	.	.	.	.	.	.	.
.	.	8e	8e	.	.	.	.	.	.	8ee	.	.	.
=224	=224	=224	=224	=224	=224	=224	=224	=224	=224	=224	=224	=224	=224
4C	2CC_	8f	8f	2C 2G_	2C	2g_	2c_	2g_	2c_	8ff	2gg_	2g_	2G_
.	.	16e	16e	.	.	.	.	.	.	16ee	.	.	.
.	.	16f	16f	.	.	.	.	.	.	16ff	.	.	.
4r	.	8d	8d	.	.	.	.	.	.	8dd	.	.	.
.	.	8b	8b	.	.	.	.	.	.	8bb	.	.	.
=225	=225	=225	=225	=225	=225	=225	=225	=225	=225	=225	=225	=225	=225
4C	2CC_	8cc	8cc	2C 2G_	2C	2g_	2c_	2g_	2c_	8ccc	2gg_	2g_	2G_
.	.	8ee	8ee	.	.	.	.	.	.	8eee	.	.	.
4r	.	8cc	8cc	.	.	.	.	.	.	8ccc	.	.	.
.	.	8e	8e	.	.	.	.	.	.	8ee	.	.	.
=226	=226	=226	=226	=226	=226	=226	=226	=226	=226	=226	=226	=226	=226
4C	2CC_	8f	8f	2C 2G_	2C	2g_	2c_	2g_	2c_	8ff	2gg_	2g_	2G_
.	.	16e	16e	.	.	.	.	.	.	16ee	.	.	.
.	.	16f	16f	.	.	.	.	.	.	16ff	.	.	.
4r	.	8d	8d	.	.	.	.	.	.	8dd	.	.	.
.	.	8b	8b	.	.	.	.	.	.	8bb	.	.	.
=227	=227	=227	=227	=227	=227	=227	=227	=227	=227	=227	=227	=227	=227
4C	2CC_	4e 4cc	4e 4cc	2C 2G_	2C	2g_	2c_	2g_	2c_	4ccc	2gg_	2g_	2G_
4r	.	8r	8r	.	.	.	.	.	.	8r	.	.	.
.	.	8e	8e	.	.	.	.	.	.	8ee	.	.	.
=228	=228	=228	=228	=228	=228	=228	=228	=228	=228	=228	=228	=228	=228
4C	2CC_	8f	8f	2C 2G_	2C	2g_	2c_	2g_	2c_	8ff	2gg_	2g_	2G_
.	.	16e	16e	.	.	.	.	.	.	16ee	.	.	.
.	.	16f	16f	.	.	.	.	.	.	16ff	.	.	.
4r	.	8d	8d	.	.	.	.	.	.	8dd	.	.	.
.	.	8b	8b	.	.	.	.	.	.	8bb	.	.	.
=229	=229	=229	=229	=229	=229	=229	=229	=229	=229	=229	=229	=229	=229
4C	2CC_	8cc	8cc	2C 2G_	2C	2g_	2c_	2g_	2c_	8ccc	2gg_	2g_	2G_
.	.	8ee	8ee	.	.	.	.	.	.	8eee	.	.	.
4r	.	8cc	8cc	.	.	.	.	.	.	8ccc	.	.	.
.	.	8e	8e	.	.	.	.	.	.	8ee	.	.	.
=230	=230	=230	=230	=230	=230	=230	=230	=230	=230	=230	=230	=230	=230
4C	2CC_	8f	8f	2C 2G_	2C	2g_	2c_	2g_	2c_	8ff	2gg_	2g]	2G_
.	.	16e	16e	.	.	.	.	.	.	16ee	.	.	.
.	.	16f	16f	.	.	.	.	.	.	16ff	.	.	.
4r	.	8d	8d	.	.	.	.	.	.	8dd	.	.	.
.	.	8b	8b	.	.	.	.	.	.	8bb	.	.	.
=231	=231	=231	=231	=231	=231	=231	=231	=231	=231	=231	=231	=231	=231
4C	2CC_	16cc	16cc	4C 4G]	4C	2g_	2c_	2g_	2c_	[2ccc	2gg_	[2ee	2G_
.	.	16c	16c	.	.	.	.	.	.	.	.	.	.
.	.	16d	16d	.	.	.	.	.	.	.	.	.	.
.	.	16e	16e	.	.	.	.	.	.	.	.	.	.
4r	.	16f	16f	4r	4r	.	.	.	.	.	.	.	.
.	.	16g	16g	.	.	.	.	.	.	.	.	.	.
.	.	16a	16a	.	.	.	.	.	.	.	.	.	.
.	.	16b	16b	.	.	.	.	.	.	.	.	.	.
=232	=232	=232	=232	=232	=232	=232	=232	=232	=232	=232	=232	=232	=232
4C	2CC_	16cc	16cc	4G 4C	4C	2g_	2c_	2g_	2c_	2ccc_	2gg_	2ee_	2G_
.	.	16e	16e	.	.	.	.	.	.	.	.	.	.
.	.	16f	16f	.	.	.	.	.	.	.	.	.	.
.	.	16g	16g	.	.	.	.	.	.	.	.	.	.
4r	.	16a	16a	4r	4r	.	.	.	.	.	.	.	.
.	.	16b	16b	.	.	.	.	.	.	.	.	.	.
.	.	16cc	16cc	.	.	.	.	.	.	.	.	.	.
.	.	16dd	16dd	.	.	.	.	.	.	.	.	.	.
=233	=233	=233	=233	=233	=233	=233	=233	=233	=233	=233	=233	=233	=233
4C	2CC_	16ee	16ee	4G 4C	4C	2g_	2c_	2g_	2c_	2ccc_	2gg_	2ee_	2G_
.	.	16g	16g	.	.	.	.	.	.	.	.	.	.
.	.	16a	16a	.	.	.	.	.	.	.	.	.	.
.	.	16b	16b	.	.	.	.	.	.	.	.	.	.
4r	.	16cc	16cc	4r	4r	.	.	.	.	.	.	.	.
.	.	16dd	16dd	.	.	.	.	.	.	.	.	.	.
.	.	16ee	16ee	.	.	.	.	.	.	.	.	.	.
.	.	16ff	16ff	.	.	.	.	.	.	.	.	.	.
=234	=234	=234	=234	=234	=234	=234	=234	=234	=234	=234	=234	=234	=234
4C	2CC_	16gg	16gg	4G 4C	4C	2g_	2c_	2g_	2c_	2ccc_	2gg_	2ee_	2G_
.	.	16cc	16cc	.	.	.	.	.	.	.	.	.	.
.	.	16dd	16dd	.	.	.	.	.	.	.	.	.	.
.	.	16ee	16ee	.	.	.	.	.	.	.	.	.	.
4r	.	16ff	16ff	4r	4r	.	.	.	.	.	.	.	.
.	.	16gg	16gg	.	.	.	.	.	.	.	.	.	.
.	.	16aa	16aa	.	.	.	.	.	.	.	.	.	.
.	.	16bb	16bb	.	.	.	.	.	.	.	.	.	.
=235	=235	=235	=235	=235	=235	=235	=235	=235	=235	=235	=235	=235	=235
4C	4CC]	4ccc	4ccc	4G 4C	4C	4g]	4c]	4g]	4c]	4ccc]	4gg]	4ee]	4G]
8r	8r	8r	8r	8r	8r	8r	8r	8r	8r	8r	8r	8r	8r
8r	8r	8dd	8cc	8r	8r	8r	8r	8r	8r	8r	8r	8r	8r
=236	=236	=236	=236	=236	=236	=236	=236	=236	=236	=236	=236	=236	=236
2r	2r	4dd	4cc	8r	8r	2r	2r	2r	2r	2r	2r	2r	2r
.	.	.	.	8f	8f	.	.	.	.	.	.	.	.
.	.	8r	8r	8f	8f	.	.	.	.	.	.	.	.
.	.	8ee-	8cc	8r	8r	.	.	.	.	.	.	.	.
=237	=237	=237	=237	=237	=237	=237	=237	=237	=237	=237	=237	=237	=237
2r	2r	4ee-	4cc	8r	8r	2r	2r	2r	2r	2r	2r	2r	2r
.	.	.	.	8f#	8f#	.	.	.	.	.	.	.	.
.	.	8r	8r	8f#	8f#	.	.	.	.	.	.	.	.
.	.	8ee	8cc	8r	8r	.	.	.	.	.	.	.	.
=238	=238	=238	=238	=238	=238	=238	=238	=238	=238	=238	=238	=238	=238
2r	2r	4ee	4cc	8r	8r	2r	2r	2r	2r	2r	2r	2r	2r
.	.	.	.	8g	8g	.	.	.	.	.	.	.	.
.	.	8r	8r	8g	8g	.	.	.	.	.	.	.	.
.	.	8ff	8cc	8r	8r	.	.	.	.	.	.	.	.
=239	=239	=239	=239	=239	=239	=239	=239	=239	=239	=239	=239	=239	=239
2r	2r	4ff	4cc	8r	8r	2r	2r	2r	2r	2r	2r	2r	2r
.	.	.	.	8a-	8a-	.	.	.	.	.	.	.	.
.	.	8r	8r	8a-	8a-	.	.	.	.	.	.	.	.
.	.	8ff#	8cc	8r	8r	.	.	.	.	.	.	.	.
=240	=240	=240	=240	=240	=240	=240	=240	=240	=240	=240	=240	=240	=240
2r	2r	4ff#	4cc	8r	8r	2r	2r	2r	2r	2r	2r	2r	2r
.	.	.	.	8a	8a	.	.	.	.	.	.	.	.
.	.	8r	8r	8a	8a	.	.	.	.	.	.	.	.
.	.	8gg	8b	8r	8r	.	.	.	.	.	.	.	.
=241	=241	=241	=241	=241	=241	=241	=241	=241	=241	=241	=241	=241	=241
2r	2r	4gg	4b	8r	8r	2r	2r	2r	2r	2r	4.r	4.r	2r
.	.	.	.	8g	8g	.	.	.	.	.	.	.	.
.	.	8r	8r	8g	8g	.	.	.	.	.	.	.	.
.	.	8ff	8dd	8r	8r	.	.	.	.	.	8ff	8dd	.
=242	=242	=242	=242	=242	=242	=242	=242	=242	=242	=242	=242	=242	=242
2r	2r	4.ff	4.dd	8g	8g	[2g	[2G	[2g	[2G	2r	4.ff	4.dd	2r
.	.	.	.	8g	8g	.	.	.	.	.	.	.	.
.	.	.	.	8g	8g	.	.	.	.	.	.	.	.
.	.	8ee	8cc	8g	8g	.	.	.	.	.	8ee	8cc	.
=243	=243	=243	=243	=243	=243	=243	=243	=243	=243	=243	=243	=243	=243
2r	2r	8ee	8cc	8g	8g	2g_	2G_	2g_	2G_	2r	8ee	8cc	2r
.	.	8dd	8b	8g	8g	.	.	.	.	.	8dd	8b	.
.	.	8dd	8b	8g	8g	.	.	.	.	.	8dd	8b	.
.	.	8aa	8ff	8g	8g	.	.	.	.	.	8aa	8ff	.
=244	=244	=244	=244	=244	=244	=244	=244	=244	=244	=244	=244	=244	=244
2r	2r	4.aa	4.ff	8g	8g	2g_	2G_	2g_	2G_	2r	4.aa	4.ff	2r
.	.	.	.	8g	8g	.	.	.	.	.	.	.	.
.	.	.	.	8g	8g	.	.	.	.	.	.	.	.
.	.	8gg	8ee	8g	8g	.	.	.	.	.	8gg	8ee	.
=245	=245	=245	=245	=245	=245	=245	=245	=245	=245	=245	=245	=245	=245
2r	2r	8gg	8ee	8g	8g	2g_	2G_	2g_	2G_	2r	8gg	8ee	2r
.	.	8ff	8dd	8g	8g	.	.	.	.	.	8ff	8dd	.
.	.	8ff	8dd	8g	8g	.	.	.	.	.	8ff	8dd	.
.	.	8ddd	8ff	8g	8g	.	.	.	.	.	8ddd	8ff	.
=246	=246	=246	=246	=246	=246	=246	=246	=246	=246	=246	=246	=246	=246
2r	2r	4.ddd	4.ff	8g	8g	2g_	2G_	2g_	2G_	2r	4.ddd	4.ff	2r
.	.	.	.	8g	8g	.	.	.	.	.	.	.	.
.	.	.	.	8g	8g	.	.	.	.	.	.	.	.
.	.	8ccc	8ee	8g	8g	.	.	.	.	.	8ccc	8ee	.
=247	=247	=247	=247	=247	=247	=247	=247	=247	=247	=247	=247	=247	=247
2r	2r	8ccc	8ee	8g	8g	2g_	2G_	2g_	2G_	2r	8ccc	8ee	2r
.	.	8bb	8dd	8g	8g	.	.	.	.	.	8bb	8dd	.
.	.	8bb	8dd	8g	8g	.	.	.	.	.	8bb	8dd	.
.	.	8aa	8ff	8g	8g	.	.	.	.	.	8aa	8ff	.
=248	=248	=248	=248	=248	=248	=248	=248	=248	=248	=248	=248	=248	=248
2r	4.r	8aa	8ff	8g	8g	2g]	2G]	2g]	2G]	2r	8aa	8ff	4.r
.	.	8gg	8ee	8g	8g	.	.	.	.	.	8gg	8ee	.
.	.	8gg	8ee	8g	8g	.	.	.	.	.	8gg	8ee	.
.	8B	8ff	8dd	8B	8B	.	.	.	.	.	8ff	8dd	8B
=249	=249	=249	=249	=249	=249	=249	=249	=249	=249	=249	=249	=249	=249
4C	8c	8ee	8cc	8c	8c	4cc	4c	4cc	4c	4.r	4ee	4cc	8c
.	16B	8ccc	8ccc	16B	16B	.	.	.	.	.	.	.	16B
.	16c	.	.	16c	16c	.	.	.	.	.	.	.	16c
4r	8A	8r	8r	8A	8A	4r	4r	4r	4r	.	4r	4r	8A
.	8d	8ff	8ff	8d	8d	.	.	.	.	8ff	.	.	8d
=250	=250	=250	=250	=250	=250	=250	=250	=250	=250	=250	=250	=250	=250
2r	8B	8dd	8dd	8B	8B	2r	2r	2r	2r	8dd	2r	2r	8B
.	8g	16cc	16cc	8g	8g	.	.	.	.	16cc	.	.	8g
.	.	16dd	16dd	.	.	.	.	.	.	16dd	.	.	.
.	8r	8b	8b	8r	8r	.	.	.	.	8b	.	.	8r
.	8G	8ee	8ee	8g	8G	.	.	.	.	8ee	.	.	8G
=251	=251	=251	=251	=251	=251	=251	=251	=251	=251	=251	=251	=251	=251
2r	8A	8cc	8cc	8a	8A	2r	2r	2r	2r	8cc	2r	2r	8A
.	16G	8aa	8aa	16g	16G	.	.	.	.	8aa	.	.	16G
.	16A	.	.	16a	16A	.	.	.	.	.	.	.	16A
.	8F#	8r	8r	8f#	8F#	.	.	.	.	8r	.	.	8F#
.	8d	8cc	8cc	8dd	8d	.	.	.	.	8cc	.	.	8d
=252	=252	=252	=252	=252	=252	=252	=252	=252	=252	=252	=252	=252	=252
4GG	4G	8b	8b	4g	[2G	4g	4G	4g	4G	8b	4r	4r	4G
.	.	16a	16a	.	.	.	.	.	.	16a	.	.	.
.	.	16b	16b	.	.	.	.	.	.	16b	.	.	.
4r	4B	8g	8g	4B	.	4r	4r	4r	4r	8g	4gg	4gg	4B
.	.	8gg	8g	.	.	.	.	.	.	8gg	.	.	.
=253	=253	=253	=253	=253	=253	=253	=253	=253	=253	=253	=253	=253	=253
4GG	4c	8aa	4f#	4c	2G_	4g	4G	4g	4G	8aa	4aa	4ff#	4c
.	.	16gg	.	.	.	.	.	.	.	16gg	.	.	.
.	.	16aa	.	.	.	.	.	.	.	16aa	.	.	.
4r	4d	8ddd	4f	4d	.	4r	4r	4r	4r	8ddd	4bb	4ff	4d
.	.	8bb	.	.	.	.	.	.	.	8bb	.	.	.
=254	=254	=254	=254	=254	=254	=254	=254	=254	=254	=254	=254	=254	=254
4GG	[2G	8ccc	4e	[2G	2G_	4g	4G	4g	4G	8ccc	4ccc	4ee	[2G
.	.	8gg	.	.	.	.	.	.	.	8gg	.	.	.
4r	.	8r	4e-	.	.	4r	4r	4r	4r	8r	4gg	4ee-	.
.	.	8gg	.	.	.	.	.	.	.	8gg	.	.	.
=255	=255	=255	=255	=255	=255	=255	=255	=255	=255	=255	=255	=255	=255
4GG	2G_	8ff#	4d	2G_	2G_	4g	4G	4g	4G	8ff#	4ff#	4dd	2G_
.	.	16ee	.	.	.	.	.	.	.	16ee	.	.	.
.	.	16ff#	.	.	.	.	.	.	.	16ff#	.	.	.
4r	.	8dd	4B	.	.	4r	4r	4r	4r	8dd	4ff	4b	.
.	.	8ff	.	.	.	.	.	.	.	8ff	.	.	.
=256	=256	=256	=256	=256	=256	=256	=256	=256	=256	=256	=256	=256	=256
4GG	2G_	8ee	4c	4G]	2G_	4g	4G	4g	4G	8ee	2ee	4cc	2G_
.	.	8gg	.	.	.	.	.	.	.	8gg	.	.	.
4r	.	8r	4e	4g	.	4r	4r	4r	4r	8r	.	4e	.
.	.	8ee	.	.	.	.	.	.	.	8ee	.	.	.
=257	=257	=257	=257	=257	=257	=257	=257	=257	=257	=257	=257	=257	=257
4GG	2G_	8dd	4f	2a	2G_	4g	4G	4g	4G	8dd	4dd	4f	2G_
.	.	16cc	.	.	.	.	.	.	.	16cc	.	.	.
.	.	16dd	.	.	.	.	.	.	.	16dd	.	.	.
4r	.	8a	4f#	.	.	4r	4r	4r	4r	8a	4cc	4f#	.
.	.	8cc	.	.	.	.	.	.	.	8cc	.	.	.
=258	=258	=258	=258	=258	=258	=258	=258	=258	=258	=258	=258	=258	=258
4GG	4G]	8b	2g	4g	4G]	4g	4G	4g	4G	8b	4b	4g	4G]
.	.	8dd	.	.	.	.	.	.	.	8dd	.	.	.
4r	8r	[4gg	.	8r	8r	4r	4r	4r	4r	[4gg	4r	[4gg	8r
.	8E	.	.	8e	8E	.	.	.	.	.	.	.	8E
=259	=259	=259	=259	=259	=259	=259	=259	=259	=259	=259	=259	=259	=259
2r	8F	4gg]	2a	8f	8F	2r	2r	2r	2r	4gg]	2aa	4gg]	8F
.	16E	.	.	16e	16E	.	.	.	.	.	.	.	16E
.	16F	.	.	16f	16F	.	.	.	.	.	.	.	16F
.	8D	[4ff	.	8d	8D	.	.	.	.	[4ff	.	[4ff	8D
.	8B	.	.	8B	8B	.	.	.	.	.	.	.	8B
=260	=260	=260	=260	=260	=260	=260	=260	=260	=260	=260	=260	=260	=260
2r	8c	4ff]	2g	8c	8c	2r	2r	2r	2r	4ff]	2gg	4ff]	8c
.	8e	.	.	8e	8e	.	.	.	.	.	.	.	8e
.	8r	[4ee	.	8r	8r	.	.	.	.	[4ee	.	[4ee	8r
.	8C	.	.	8C	8C	.	.	.	.	.	.	.	8C
=261	=261	=261	=261	=261	=261	=261	=261	=261	=261	=261	=261	=261	=261
2r	8A	4ee]	2f	8A	8A	2r	2r	2r	2r	4ee]	2ff	4ee]	8A
.	16G	.	.	16G	16G	.	.	.	.	.	.	.	16G
.	16A	.	.	16A	16A	.	.	.	.	.	.	.	16A
.	8B	[4dd	.	8B	8B	.	.	.	.	[4dd	.	[4dd	8B
.	16A	.	.	16A	16A	.	.	.	.	.	.	.	16A
.	16B	.	.	16B	16B	.	.	.	.	.	.	.	16B
=262	=262	=262	=262	=262	=262	=262	=262	=262	=262	=262	=262	=262	=262
2r	4c	4dd]	2e	8c	8c	2r	2r	2r	2r	4dd]	2ee	4dd]	4c
.	.	.	.	8c	8C	.	.	.	.	.	.	.	.
.	4r	[4cc	.	8A	8A	.	.	.	.	[4cc	.	[4cc	4r
.	.	.	.	8A	8AA	.	.	.	.	.	.	.	.
=263	=263	=263	=263	=263	=263	=263	=263	=263	=263	=263	=263	=263	=263
2r	2r	4cc]	2d	8F	8F	2r	2r	2r	2r	4cc]	2dd	4cc]	2r
.	.	.	.	16E	16E	.	.	.	.	.	.	.	.
.	.	.	.	16F	16F	.	.	.	.	.	.	.	.
.	.	4b	.	8G	8G	.	.	.	.	4b	.	4b	.
.	.	.	.	8G	8GG	.	.	.	.	.	.	.	.
=264	=264	=264	=264	=264	=264	=264	=264	=264	=264	=264	=264	=264	=264
16C	[2CC	4cc	4c	[2C 2G	2C	[2g	[2c	[2g	[2c	4cc	4cc	[2g	[2G
16C	.	.	.	.	.	.	.	.	.	.	.	.	.
16C	.	.	.	.	.	.	.	.	.	.	.	.	.
16C	.	.	.	.	.	.	.	.	.	.	.	.	.
16C	.	4r	4r	.	.	.	.	.	.	4r	4r	.	.
16C	.	.	.	.	.	.	.	.	.	.	.	.	.
16C	.	.	.	.	.	.	.	.	.	.	.	.	.
16C	.	.	.	.	.	.	.	.	.	.	.	.	.
=265	=265	=265	=265	=265	=265	=265	=265	=265	=265	=265	=265	=265	=265
16C	2CC_	4.r	4.r	2C 2G_	2C	2g_	2c_	2g_	2c_	4.r	4.r	2g_	2G_
16C	.	.	.	.	.	.	.	.	.	.	.	.	.
16C	.	.	.	.	.	.	.	.	.	.	.	.	.
16C	.	.	.	.	.	.	.	.	.	.	.	.	.
16C	.	.	.	.	.	.	.	.	.	.	.	.	.
16C	.	.	.	.	.	.	.	.	.	.	.	.	.
16C	.	8e	8e	.	.	.	.	.	.	8ee	8ee	.	.
16C	.	.	.	.	.	.	.	.	.	.	.	.	.
=266	=266	=266	=266	=266	=266	=266	=266	=266	=266	=266	=266	=266	=266
16C	2CC_	8f	8f	2C 2G_	2C	2g_	2c_	2g_	2c_	8ff	8ff	2g_	2G_
16C	.	.	.	.	.	.	.	.	.	.	.	.	.
16C	.	16e	16e	.	.	.	.	.	.	16ee	16ee	.	.
16C	.	16f	16f	.	.	.	.	.	.	16ff	16ff	.	.
16C	.	8d	8d	.	.	.	.	.	.	8dd	8dd	.	.
16C	.	.	.	.	.	.	.	.	.	.	.	.	.
16C	.	8b	8b	.	.	.	.	.	.	8bb	8b	.	.
16C	.	.	.	.	.	.	.	.	.	.	.	.	.
=267	=267	=267	=267	=267	=267	=267	=267	=267	=267	=267	=267	=267	=267
16C	2CC_	8cc	8cc	2C 2G_	2C	2g_	2c_	2g_	2c_	8ccc	8cc	2g_	2G_
16C	.	.	.	.	.	.	.	.	.	.	.	.	.
16C	.	8ee	8ee	.	.	.	.	.	.	8eee	8ee	.	.
16C	.	.	.	.	.	.	.	.	.	.	.	.	.
16C	.	8cc	8cc	.	.	.	.	.	.	8ccc	8cc	.	.
16C	.	.	.	.	.	.	.	.	.	.	.	.	.
16C	.	8e	8e	.	.	.	.	.	.	8ee	8ee	.	.
16C	.	.	.	.	.	.	.	.	.	.	.	.	.
=268	=268	=268	=268	=268	=268	=268	=268	=268	=268	=268	=268	=268	=268
16C	2CC_	8f	8f	2C 2G_	2C	2g_	2c_	2g_	2c_	8ff	8ff	2g_	2G_
16C	.	.	.	.	.	.	.	.	.	.	.	.	.
16C	.	16e	16e	.	.	.	.	.	.	16ee	16ee	.	.
16C	.	16f	16f	.	.	.	.	.	.	16ff	16ff	.	.
16C	.	8d	8d	.	.	.	.	.	.	8dd	8dd	.	.
16C	.	.	.	.	.	.	.	.	.	.	.	.	.
16C	.	8b 8d	8b 8d	.	.	.	.	.	.	8b	8b	.	.
16C	.	.	.	.	.	.	.	.	.	.	.	.	.
=269	=269	=269	=269	=269	=269	=269	=269	=269	=269	=269	=269	=269	=269
16C	2CC_	4cc 4G 4e	4G 4cc 4e	2C 2G_	2C	2g_	2c_	2g_	2c_	4cc	4cc	2g_	2G_
16C	.	.	.	.	.	.	.	.	.	.	.	.	.
16C	.	.	.	.	.	.	.	.	.	.	.	.	.
16C	.	.	.	.	.	.	.	.	.	.	.	.	.
16C	.	8r	8r	.	.	.	.	.	.	8r	8r	.	.
16C	.	.	.	.	.	.	.	.	.	.	.	.	.
16C	.	8e	8e	.	.	.	.	.	.	8ee	8ee	.	.
16C	.	.	.	.	.	.	.	.	.	.	.	.	.
=270	=270	=270	=270	=270	=270	=270	=270	=270	=270	=270	=270	=270	=270
16C	2CC_	8f	8f	2C 2G_	2C	2g_	2c_	2g_	2c_	8ff	8ff	2g_	2G_
16C	.	.	.	.	.	.	.	.	.	.	.	.	.
16C	.	16e	16e	.	.	.	.	.	.	16ee	16ee	.	.
16C	.	16f	16f	.	.	.	.	.	.	16ff	16ff	.	.
16C	.	8d	8d	.	.	.	.	.	.	8dd	8dd	.	.
16C	.	.	.	.	.	.	.	.	.	.	.	.	.
16C	.	8b	8b	.	.	.	.	.	.	8bb	8b	.	.
16C	.	.	.	.	.	.	.	.	.	.	.	.	.
=271	=271	=271	=271	=271	=271	=271	=271	=271	=271	=271	=271	=271	=271
16C	2CC_	8cc	8cc	2C 2G_	2C	2g_	2c_	2g_	2c_	8ccc	4cc	2g_	2G_
16C	.	.	.	.	.	.	.	.	.	.	.	.	.
16C	.	8ee	8ee	.	.	.	.	.	.	8eee	.	.	.
16C	.	.	.	.	.	.	.	.	.	.	.	.	.
16C	.	8cc	8cc	.	.	.	.	.	.	8ccc	4ee	.	.
16C	.	.	.	.	.	.	.	.	.	.	.	.	.
16C	.	8e	8e	.	.	.	.	.	.	8ee	.	.	.
16C	.	.	.	.	.	.	.	.	.	.	.	.	.
=272	=272	=272	=272	=272	=272	=272	=272	=272	=272	=272	=272	=272	=272
16C	2CC_	8f	8f	2C 2G_	2C	2g_	2c_	2g_	2c_	8ff	8ff	2g_	2G_
16C	.	.	.	.	.	.	.	.	.	.	.	.	.
16C	.	16e	16e	.	.	.	.	.	.	16ee	16ee	.	.
16C	.	16f	16f	.	.	.	.	.	.	16ff	16ff	.	.
16C	.	8d	8d	.	.	.	.	.	.	8dd	8dd	.	.
16C	.	.	.	.	.	.	.	.	.	.	.	.	.
16C	.	8b 8d	8b 8d	.	.	.	.	.	.	8b	8b	.	.
16C	.	.	.	.	.	.	.	.	.	.	.	.	.
=273	=273	=273	=273	=273	=273	=273	=273	=273	=273	=273	=273	=273	=273
4C	4CC]	4cc 4G 4e	4cc 4e 4G	4C 4G]	4C	4g]	4c]	4g]	4c]	4cc	4cc	4g]	4G]
4r	4r	4r	4r	4r	4r	4r	4r	4r	4r	4r	4r	4r	4r
=274	=274	=274	=274	=274	=274	=274	=274	=274	=274	=274	=274	=274	=274
4C	4C	4ee 4cc	4ee 4cc	4e 4G	4C	4cc	4e	4cc	4e	4ee	4ee	4cc	4C
4C	4C	4ee 4gg	4gg 4ee	4e 4G	4C	4cc	4e	4cc	4e	4gg	4gg	4ee	4C
=275	=275	=275	=275	=275	=275	=275	=275	=275	=275	=275	=275	=275	=275
4C	4C	4ee 4ccc	4ee 4cc	4e 4G	4C	4cc	4e	4cc	4e	4ccc	4ccc	4cc	4C
4r	4r	4r	4r	4r	4r	4r	4r	4r	4r	4r	4r	4r	4r
=276	=276	=276	=276	=276	=276	=276	=276	=276	=276	=276	=276	=276	=276
4C	4C	4ccc 4ee	4ee 4g 4cc	4e 4G	4C	4cc	4e	4cc	4e	4ccc	4ccc	4ee	4C
4C	4C	4ccc 4ee	4ee 4g 4cc	4e 4G	4C	4cc	4e	4cc	4e	4ccc	4ccc	4ee	4C
=277	=277	=277	=277	=277	=277	=277	=277	=277	=277	=277	=277	=277	=277
4C	4C	4ccc 4ee	4ee 4g 4cc	4e 4G	4C	4cc	4e	4cc	4e	4ccc	4ccc	4ee	4C
4r	4r	4r	4r	4r	4r	4r	4r	4r	4r	4r	4r	4r	4r
=278	=278	=278	=278	=278	=278	=278	=278	=278	=278	=278	=278	=278	=278
4C	4C	4ccc 4ee	4cc 4ee 4g	4e 4G	4C	4cc	4e	4cc	4e	4ccc	4ccc	4ee	4C
4r	4r	4r	4r	4r	4r	4r	4r	4r	4r	4r	4r	4r	4r
=279	=279	=279	=279	=279	=279	=279	=279	=279	=279	=279	=279	=279	=279
4C	4C	4ccc 4ee	4ee 4g 4cc	4e 4G	4C	4cc	4e	4cc	4e	4ccc	4ccc	4ee	4C
4r	4r	4r	4r	4r	4r	4r	4r	4r	4r	4r	4r	4r	4r
=280	=280	=280	=280	=280	=280	=280	=280	=280	=280	=280	=280	=280	=280
2r	2r	2r	2r	2r	2r	2r	2r	2r	2r	2r	2r	2r	2r
==	==	==	==	==	==	==	==	==	==	==	==	==	==
*-	*-	*-	*-	*-	*-	*-	*-	*-	*-	*-	*-	*-	*-
!!!RWG1: This file contains only pitch and duration data.
!!!RWG2: Transposing instruments are not transposed.
!!!RWG3: Spines may have incompatible meters.
!!!RWG4: Durations of rests and tied notes may be interpreted.
!!!RWG: Key is interpreted using the Humdrum key tool.
!!!OPT: L'ours
!!!AFT: stage1
!!!END: 1997/04/15
!!format changes:
!!content changes:
!!public access: complete
!!!KEY: 4153006343
!!!EMD: Converted from MuseData to Humdrum Dec 16, 2000, by Andreas Kornstaedt using muse2kern.
